;FLAVOR:Marlin
;TIME:11140
;Filament used: 9.49577m
;Layer height: 0.2
;MINX:-27.716
;MINY:-41.783
;MINZ:0.28
;MAXX:39.902
;MAXY:25.839
;MAXZ:32.08
;Generated with Cura_SteamEngine 5.3.0
M82 ;absolute extrusion mode
;Start Gcode
G90 ;absolute positioning
M118 X25.00 Y25.00 Z20.00 T0
M140 S40 T0 ;Heat bed up to first layer temperature
M104 S200 T0 ;Set nozzle temperature to first layer temperature
M107 ;start with the fan off
G90
G28
M132 X Y Z A B
G1 Z50.000 F420
G161 X Y F3300
M7 T0
M6 T0
M651
M907 X100 Y100 Z40 A100 B20 ;Digital potentiometer value
M108 T0
;Purge line
G1 X-110.00 Y-60.00 F4800
G1 Z0.28 F420
G1 X-110.00 Y60.00 E17,4 F1200
;Purge line end
G92 E0
G92 E0
G1 F2400 E-1.3
;LAYER_COUNT:160
;LAYER:0
M107
G0 F3000 X-8.553 Y25.199 Z0.28
;TYPE:SKIRT
G1 F2400 E0
G1 F1500 X-27.221 Y6.526 E1.22948
G1 X-27.554 Y5.99 E1.25887
G1 X-27.716 Y5.331 E1.29047
G1 X-27.71 Y-21.283 E2.52973
G1 X-27.548 Y-21.942 E2.56133
G1 X-27.215 Y-22.478 E2.59071
G1 X-8.552 Y-41.142 E3.81973
G1 X-8.044 Y-41.489 E3.84838
G1 X-7.159 Y-41.783 E3.8918
G1 X19.336 Y-41.782 E5.12552
G1 X20.294 Y-41.469 E5.17245
G1 X20.74 Y-41.143 E5.19817
G1 X39.309 Y-22.564 E6.4213
G1 X39.64 Y-22.059 E6.44942
G1 X39.902 Y-21.2 E6.49124
G1 X39.902 Y5.25 E7.72286
G1 X39.615 Y6.184 E7.76836
G1 X39.281 Y6.649 E7.79502
G1 X20.739 Y25.198 E9.01627
G1 X20.231 Y25.545 E9.04492
G1 X19.346 Y25.839 E9.08834
G1 X-7.149 Y25.838 E10.32206
G1 X-8.107 Y25.525 E10.36899
G1 X-8.553 Y25.199 E10.39471
G0 F3000 X-8.27 Y24.916
G1 F1500 X-26.906 Y6.275 E11.62209
G1 X-27.182 Y5.831 E11.64643
G1 X-27.316 Y5.285 E11.67261
G1 X-27.31 Y-21.237 E12.90758
G1 X-27.176 Y-21.783 E12.93376
G1 X-26.9 Y-22.227 E12.95811
G1 X-8.269 Y-40.859 E14.18502
G1 X-7.867 Y-41.126 E14.20749
G1 X-7.093 Y-41.383 E14.24547
G1 X19.273 Y-41.382 E15.47318
G1 X20.108 Y-41.109 E15.51409
G1 X20.457 Y-40.86 E15.53405
G1 X38.997 Y-22.311 E16.75524
G1 X39.273 Y-21.888 E16.77876
G1 X39.502 Y-21.139 E16.81523
G1 X39.502 Y5.192 E18.04131
G1 X39.253 Y6.003 E18.08081
G1 X38.998 Y6.366 E18.10147
G1 X20.456 Y24.915 E19.32272
G1 X20.054 Y25.182 E19.34519
G1 X19.28 Y25.439 E19.38317
G1 X-7.086 Y25.438 E20.61088
G1 X-7.921 Y25.165 E20.65179
G1 X-8.27 Y24.916 E20.67175
G0 F3000 X-7.987 Y24.633
G1 F1500 X-26.623 Y5.992 E21.89913
G1 X-26.837 Y5.628 E21.91879
G1 X-26.916 Y5.285 E21.93518
G1 X-26.91 Y-21.237 E23.17015
G1 X-26.831 Y-21.58 E23.18654
G1 X-26.617 Y-21.944 E23.2062
G1 X-7.986 Y-40.576 E24.43312
G1 X-7.741 Y-40.746 E24.44701
G1 X-7.027 Y-40.983 E24.48204
G1 X19.21 Y-40.982 E25.70374
G1 X19.925 Y-40.748 E25.73877
G1 X20.174 Y-40.577 E25.75284
G1 X38.714 Y-22.028 E26.97402
G1 X38.89 Y-21.771 E26.98853
G1 X39.102 Y-21.078 E27.02227
G1 X39.102 Y5.134 E28.24281
G1 X38.891 Y5.822 E28.27632
G1 X38.715 Y6.083 E28.29098
G1 X20.173 Y24.632 E29.51223
G1 X19.928 Y24.802 E29.52612
G1 X19.214 Y25.039 E29.56115
G1 X-7.023 Y25.038 E30.78285
G1 X-7.738 Y24.804 E30.81789
G1 X-7.987 Y24.633 E30.83195
G0 F3000 X-7.704 Y24.35
G1 F1500 X-26.34 Y5.709 E32.05933
G1 X-26.485 Y5.439 E32.0736
G1 X-26.516 Y5.285 E32.08091
G1 X-26.51 Y-21.237 E33.31589
G1 X-26.479 Y-21.391 E33.3232
G1 X-26.334 Y-21.661 E33.33747
G1 X-7.703 Y-40.293 E34.56439
G1 X-7.561 Y-40.384 E34.57224
G1 X-6.961 Y-40.583 E34.60168
G1 X19.147 Y-40.582 E35.81738
G1 X19.747 Y-40.386 E35.84677
G1 X19.891 Y-40.294 E35.85472
G1 X38.431 Y-21.745 E37.07591
G1 X38.526 Y-21.594 E37.08422
G1 X38.702 Y-21.02 E37.11217
G1 X38.702 Y5.076 E38.32731
G1 X38.527 Y5.648 E38.35517
G1 X38.432 Y5.8 E38.36351
G1 X19.89 Y24.349 E39.58477
G1 X19.748 Y24.44 E39.59262
G1 X19.148 Y24.639 E39.62205
G1 X-6.96 Y24.638 E40.83775
G1 X-7.56 Y24.442 E40.86714
G1 X-7.704 Y24.35 E40.8751
G0 F3000 X-7.421 Y24.067
G1 F1500 X-26.057 Y5.426 E42.10248
G1 X-26.116 Y5.285 E42.1096
G1 X-26.11 Y-21.237 E43.34457
G1 X-26.051 Y-21.378 E43.35169
G1 X-7.42 Y-40.01 E44.5786
G1 X-6.961 Y-40.183 E44.60144
G1 X19.147 Y-40.182 E45.81714
G1 X19.608 Y-40.011 E45.84004
G1 X38.148 Y-21.462 E47.06122
G1 X38.302 Y-21.02 E47.08302
G1 X38.302 Y5.076 E48.29816
G1 X38.149 Y5.517 E48.31989
G1 X19.607 Y24.066 E49.54115
G1 X19.148 Y24.239 E49.56399
G1 X-6.96 Y24.238 E50.77969
G1 X-7.421 Y24.067 E50.80258
G1 F2400 E49.50258
G0 F3000 X-8.001 Y14.05
;TYPE:SUPPORT
G1 F2400 E50.80258
G1 F1500 X-8.001 Y-6.083 E51.74006
G1 F2400 E50.44006
G0 F3000 X-10.265 Y-5.334
G1 F2400 E51.74006
G1 F1500 X-1.553 Y-5.334 E52.14573
G1 F2400 E50.84573
G0 F3000 X-2.667 Y-5.775
G1 F2400 E52.14573
G1 F1500 X-2.667 Y9.08 E52.83744
G1 F2400 E51.53744
G0 F3000 X-1.588 Y8.001
G1 F2400 E52.83744
G1 F1500 X-15.446 Y8 E53.48272
G1 F2400 E52.18272
G0 F3000 X-16.002 Y6.19
G1 F2400 E53.48272
G1 F1500 X-16.002 Y1.862 E53.68425
G0 F3000 X-16.149 Y2.666
G1 F1500 X4.34 Y2.667 E54.63831
G1 F2400 E53.33831
G0 F3000 X2.667 Y4.639
G1 F2400 E54.63831
G1 F1500 X2.667 Y-1.725 E54.93464
G1 F2400 E53.63464
G0 F3000 X1.955 Y-2.667
G1 F2400 E54.93464
G1 F1500 X-13.77 Y-2.667 E55.66686
G0 F3000 X-13.335 Y-3.152
G1 F1500 X-13.335 Y11.199 E56.33511
G0 F3000 X-13.829 Y10.668
G1 F1500 X-4.257 Y10.668 E56.78082
G1 F2400 E55.48082
G0 F3000 X-5.334 Y11.745
G1 F2400 E56.78082
G1 F1500 X-5.334 Y-6.29 E57.6206
G1 F2400 E56.3206
G0 F3000 X-10.668 Y-5.144
G1 F2400 E57.6206
G1 F1500 X-10.668 Y13.189 E58.47426
G0 F3000 X-10.4 Y13.335
G1 F1500 X-6.925 Y13.335 E58.63607
G1 F2400 E57.33607
G0 F3000 X0.00 Y6.414
G1 F2400 E58.63607
G1 F1500 X0.00 Y-4.45 E59.14195
G1 F2400 E57.84195
G0 F3000 X3.601 Y0.00
G1 F2400 E59.14195
G1 F1500 X-15.413 Y0.00 E60.02732
G1 F2400 E58.72732
G0 F3000 X-16.149 Y5.333
G1 F2400 E60.02732
G1 F1500 X1.255 Y5.334 E60.83772
G1 F2400 E59.53772
G0 F3000 X8.001 Y4.407
G1 F2400 E60.83772
G1 F1500 X8.001 Y1.818 E60.95828
G0 F3000 X7.849 Y2.667
G1 F1500 X28.338 Y2.667 E61.91233
G1 F2400 E60.61233
G0 F3000 X28.334 Y5.334
G1 F2400 E61.91233
G1 F1500 X10.911 Y5.334 E62.72362
G0 F3000 X10.668 Y5.171
G1 F1500 X10.668 Y-3.162 E63.11164
G0 F3000 X10.234 Y-2.666
G1 F1500 X25.959 Y-2.666 E63.84386
G1 F2400 E62.54386
G0 F3000 X26.67 Y-1.732
G1 F2400 E63.84386
G1 F1500 X26.67 Y9.797 E64.3807
G1 F2400 E63.0807
G0 F3000 X26.014 Y10.668
G1 F2400 E64.3807
G1 F1500 X16.44 Y10.668 E64.8265
G0 F3000 X16.002 Y10.231
G1 F1500 X16.002 Y-6.086 E65.58629
G1 F2400 E64.28629
G0 F3000 X13.742 Y-5.333
G1 F2400 E65.58629
G1 F1500 X22.454 Y-5.333 E65.99196
G1 F2400 E64.69196
G0 F3000 X21.336 Y-5.775
G1 F2400 E65.99196
G1 F1500 X21.336 Y13.838 E66.90522
G1 F2400 E65.60522
G0 F3000 X22.587 Y13.335
G1 F2400 E66.90522
G1 F1500 X19.112 Y13.335 E67.06703
G0 F3000 X18.669 Y12.892
G1 F1500 X18.669 Y-6.288 E67.96013
G1 F2400 E66.66013
G0 F3000 X13.335 Y-5.145
G1 F2400 E67.96013
G1 F1500 X13.335 Y7.569 E68.55215
G0 F3000 X13.768 Y8.001
G1 F1500 X27.632 Y8.001 E69.19772
G1 F2400 E67.89772
G0 F3000 X24.003 Y12.495
G1 F2400 E69.19772
G1 F1500 X24.003 Y-4.439 E69.98624
G1 F2400 E68.68624
G0 F3000 X27.602 Y0.00
G1 F2400 E69.98624
G1 F1500 X8.588 Y0.00 E70.87161
G1 F2400 E69.57161
G0 F3000 X13.616 Y-10.668
G1 F2400 E70.87161
G1 F1500 X22.586 Y-10.667 E71.28929
G1 F2400 E69.98929
G0 F3000 X21.336 Y-10.168
G1 F2400 E71.28929
G1 F1500 X21.336 Y-29.778 E72.20241
G1 F2400 E70.90241
G0 F3000 X22.464 Y-29.337
G1 F2400 E72.20241
G1 F1500 X19.17 Y-29.337 E72.35579
G0 F3000 X18.669 Y-28.838
G1 F1500 X18.669 Y-9.653 E73.24913
G1 F2400 E71.94913
G0 F3000 X16.002 Y-9.86
G1 F2400 E73.24913
G1 F1500 X16.002 Y-26.18 E74.00906
G0 F3000 X16.494 Y-26.67
G1 F1500 X25.968 Y-26.67 E74.4502
G1 F2400 E73.1502
G0 F3000 X26.67 Y-25.744
G1 F2400 E74.4502
G1 F1500 X26.67 Y-14.212 E74.98718
G1 F2400 E73.68718
G0 F3000 X26.007 Y-13.334
G1 F2400 E74.98718
G1 F1500 X10.182 Y-13.335 E75.72406
G0 F3000 X10.668 Y-12.78
G1 F1500 X10.668 Y-21.102 E76.11157
G0 F3000 X11.036 Y-21.336
G1 F1500 X28.329 Y-21.336 E76.9168
G1 F2400 E75.6168
G0 F3000 X28.341 Y-18.669
G1 F2400 E76.9168
G1 F1500 X7.833 Y-18.669 E77.87174
G0 F3000 X8.001 Y-17.771
G1 F1500 X8.001 Y-20.276 E77.98838
G1 F2400 E76.68838
G0 F3000 X8.561 Y-16.002
G1 F2400 E77.98838
G1 F1500 X27.625 Y-16.001 E78.87608
G1 F2400 E77.57608
G0 F3000 X24.003 Y-11.502
G1 F2400 E78.87608
G1 F1500 X24.003 Y-28.436 E79.6646
G1 F2400 E78.3646
G0 F3000 X27.606 Y-24.003
G1 F2400 E79.6646
G1 F1500 X13.818 Y-24.003 E80.30663
G0 F3000 X13.335 Y-23.522
G1 F1500 X13.335 Y-10.798 E80.89911
G1 F2400 E79.59911
G0 F3000 X7.563 Y-19.358
G0 X6.575 Y-20.03
G0 X5.594 Y-20.022
G0 X4.622 Y-19.357
G0 X3.623 Y-16.002
G1 F2400 E80.89911
G1 F1500 X-15.439 Y-16.002 E81.78672
G1 F2400 E80.48672
G0 F3000 X-16.002 Y-17.802
G1 F2400 E81.78672
G1 F1500 X-16.002 Y-22.139 E81.98867
G0 F3000 X-16.14 Y-21.336
G1 F1500 X1.137 Y-21.336 E82.79316
G1 F2400 E81.49316
G0 F3000 X0.00 Y-22.372
G1 F2400 E82.79316
G1 F1500 X0.00 Y-11.494 E83.29968
G1 F2400 E81.99968
G0 F3000 X-1.429 Y-10.668
G1 F2400 E83.29968
G1 F1500 X-10.398 Y-10.668 E83.71732
G0 F3000 X-10.668 Y-10.8
G1 F1500 X-10.668 Y-29.135 E84.57107
G0 F3000 X-10.273 Y-29.337
G1 F1500 X-6.975 Y-29.337 E84.72464
G1 F2400 E83.42464
G0 F3000 X-8.001 Y-29.994
G1 F2400 E84.72464
G1 F1500 X-8.001 Y-9.863 E85.66202
G1 F2400 E84.36202
G0 F3000 X-5.334 Y-9.652
G1 F2400 E85.66202
G1 F1500 X-5.334 Y-27.697 E86.50227
G1 F2400 E85.20227
G0 F3000 X-4.303 Y-26.67
G1 F2400 E86.50227
G1 F1500 X-13.777 Y-26.67 E86.94342
G0 F3000 X-13.335 Y-27.144
G1 F1500 X-13.335 Y-12.793 E87.61167
G0 F3000 X-13.822 Y-13.335
G1 F1500 X2.004 Y-13.335 E88.34859
G1 F2400 E87.04859
G0 F3000 X2.667 Y-14.215
G1 F2400 E88.34859
G1 F1500 X2.667 Y-20.552 E88.64367
G1 F2400 E87.34367
G0 F3000 X4.352 Y-18.669
G1 F2400 E88.64367
G1 F1500 X-16.155 Y-18.669 E89.59856
G1 F2400 E88.29856
G0 F3000 X-15.417 Y-24.003
G1 F2400 E89.59856
G1 F1500 X-1.632 Y-24.003 E90.24045
G1 F2400 E88.94045
G0 F3000 X-2.667 Y-25.035
G1 F2400 E90.24045
G1 F1500 X-2.667 Y-10.168 E90.93272
G1 F2400 E89.63272
;MESH:Suporte_eletroima2.stl
G0 F3000 X7.036 Y-31.308
G0 X7.107 Y-32.372
G0 X7.906 Y-32.678
G0 X7.794 Y-32.401
;TYPE:WALL-INNER
G1 F2400 E90.93272
G1 F1500 X8.188 Y-32.127 E90.95506
G1 X10.948 Y-29.468 E91.13352
G1 X11.07 Y-29.412 E91.13977
G1 X11.254 Y-29.397 E91.14837
G1 X11.369 Y-29.429 E91.15392
G1 X12.49 Y-30.128 E91.21544
G1 X13.591 Y-30.662 E91.27242
G1 X14.696 Y-31.063 E91.32716
G1 X15.923 Y-31.368 E91.38603
G1 X17.097 Y-31.529 E91.44121
G1 X18.39 Y-31.568 E91.50144
G1 X19.616 Y-31.471 E91.55871
G1 X20.83 Y-31.245 E91.61621
G1 X21.943 Y-30.914 E91.67028
G1 X23.132 Y-30.421 E91.73021
G1 X24.211 Y-29.827 E91.78756
G1 X25.17 Y-29.165 E91.84183
G1 X26.149 Y-28.319 E91.90208
G1 X26.983 Y-27.423 E91.95907
G1 X27.726 Y-26.436 E92.0166
G1 X28.33 Y-25.431 E92.0712
G1 X28.871 Y-24.264 E92.13109
G1 X29.265 Y-23.092 E92.18867
G1 X29.524 Y-21.949 E92.24324
G1 X29.668 Y-20.753 E92.29933
G1 X29.684 Y-19.496 E92.35787
G1 X29.567 Y-18.25 E92.41614
G1 X29.333 Y-17.097 E92.47093
G1 X28.938 Y-15.855 E92.53161
G1 X28.447 Y-14.741 E92.5883
G1 X27.87 Y-13.729 E92.64254
G1 X27.111 Y-12.676 E92.70299
G1 X26.301 Y-11.773 E92.75947
G1 X25.411 Y-10.971 E92.81526
G1 X24.413 Y-10.243 E92.87278
G1 X23.342 Y-9.628 E92.93029
G1 X22.229 Y-9.133 E92.98701
G1 X21.046 Y-8.752 E93.04488
G1 X19.848 Y-8.503 E93.10185
G1 X18.613 Y-8.383 E93.15963
G1 X17.389 Y-8.393 E93.21663
G1 X16.171 Y-8.533 E93.27372
G1 X14.981 Y-8.798 E93.33049
G1 X13.823 Y-9.186 E93.38735
G1 X12.69 Y-9.707 E93.44542
G1 X11.641 Y-10.332 E93.50228
G1 X10.635 Y-11.086 E93.56082
G1 X9.744 Y-11.919 E93.61762
G1 X8.933 Y-12.852 E93.67518
G1 X8.218 Y-13.887 E93.73375
G1 X7.656 Y-14.908 E93.78802
G1 X7.158 Y-16.1 E93.84818
G1 X6.808 Y-17.283 E93.90562
G1 X6.583 Y-18.513 E93.96385
G1 X6.453 Y-18.702 E93.97453
G1 X6.305 Y-18.778 E93.98228
G1 X5.897 Y-18.786 E94.00128
G1 X5.733 Y-18.702 E94.00986
G1 X5.604 Y-18.511 E94.02059
G1 X5.364 Y-17.218 E94.08183
G1 X5.007 Y-16.042 E94.13905
G1 X4.528 Y-14.903 E94.19659
G1 X3.934 Y-13.831 E94.25366
G1 X3.254 Y-12.85 E94.30924
G1 X2.421 Y-11.897 E94.36817
G1 X1.522 Y-11.062 E94.42531
G1 X0.536 Y-10.325 E94.48263
G1 X-.504 Y-9.706 E94.53898
G1 X-1.641 Y-9.184 E94.59724
G1 X-2.795 Y-8.796 E94.65393
G1 X-3.985 Y-8.532 E94.71069
G1 X-5.154 Y-8.396 E94.76549
G1 X-6.448 Y-8.385 E94.82575
G1 X-7.662 Y-8.505 E94.88255
G1 X-8.873 Y-8.757 E94.94015
G1 X-10.051 Y-9.139 E94.99781
G1 X-11.108 Y-9.604 E95.05158
G1 X-12.179 Y-10.214 E95.10897
G1 X-13.207 Y-10.958 E95.16806
G1 X-14.116 Y-11.775 E95.22497
G1 X-14.926 Y-12.679 E95.28149
G1 X-15.686 Y-13.734 E95.34204
G1 X-16.263 Y-14.746 E95.39628
G1 X-16.769 Y-15.902 E95.45504
G1 X-17.148 Y-17.103 E95.51368
G1 X-17.38 Y-18.25 E95.56817
G1 X-17.496 Y-19.467 E95.6251
G1 X-17.481 Y-20.743 E95.68452
G1 X-17.335 Y-21.955 E95.74136
G1 X-17.059 Y-23.16 E95.79893
G1 X-16.681 Y-24.271 E95.85357
G1 X-16.139 Y-25.437 E95.91344
G1 X-15.511 Y-26.478 E95.97006
G1 X-14.801 Y-27.416 E96.02483
G1 X-13.956 Y-28.325 E96.08262
G1 X-12.974 Y-29.172 E96.14301
G1 X-12.017 Y-29.832 E96.19714
G1 X-10.879 Y-30.453 E96.25751
G1 X-9.748 Y-30.917 E96.31443
G1 X-8.634 Y-31.248 E96.36855
G1 X-7.419 Y-31.473 E96.42608
G1 X-6.194 Y-31.569 E96.4833
G1 X-4.9 Y-31.528 E96.54358
G1 X-3.684 Y-31.357 E96.60076
G1 X-2.56 Y-31.078 E96.65469
G1 X-1.339 Y-30.634 E96.71519
G1 X-.234 Y-30.09 E96.77254
G1 X0.828 Y-29.422 E96.83096
G1 X1.125 Y-29.407 E96.8448
G1 X1.246 Y-29.461 E96.85097
G1 X3.999 Y-32.125 E97.02936
G1 X4.396 Y-32.403 E97.05193
G1 X4.75 Y-32.531 E97.06945
G1 X5.097 Y-32.571 E97.08572
G1 X7.16 Y-32.568 E97.18178
G1 X7.408 Y-32.536 E97.19342
G1 X7.794 Y-32.401 E97.21247
G0 F3000 X7.906 Y-32.678
G0 X19.616 Y-31.713
G0 X20.849 Y-31.487
G0 X22.051 Y-31.131
G0 X23.209 Y-30.65
G0 X24.311 Y-30.049
G0 X25.341 Y-29.334
G0 X26.303 Y-28.504
G0 X27.149 Y-27.6
G0 X27.906 Y-26.601
G0 X28.56 Y-25.51
G0 X29.081 Y-24.387
G0 X29.49 Y-23.183
G0 X29.767 Y-21.961
G0 X29.909 Y-20.731
G0 X29.923 Y-19.48
G0 X29.805 Y-18.231
G0 X29.556 Y-17.001
G0 X29.177 Y-15.805
G0 X28.674 Y-14.657
G0 X28.052 Y-13.568
G0 X27.319 Y-12.549
G0 X26.47 Y-11.603
G0 X25.538 Y-10.763
G0 X24.521 Y-10.027
G0 X23.433 Y-9.404
G0 X22.287 Y-8.898
G0 X21.091 Y-8.517
G0 X19.862 Y-8.264
G0 X-.336 Y-6.42
G0 X-1.476 Y-6.952
G0 X-2.681 Y-7.364
G0 X-3.89 Y-7.64
G0 X-5.154 Y-7.787
G0 X-6.393 Y-7.802
G0 X-7.645 Y-7.684
G0 X-8.876 Y-7.434
G0 X-10.091 Y-7.049
G0 X-11.225 Y-6.551
G0 X-12.316 Y-5.927
G0 X-13.349 Y-5.181
G0 X-14.272 Y-4.352
G0 X-15.113 Y-3.418
G0 X-15.858 Y-2.385
G0 X-16.475 Y-1.31
G0 X-16.988 Y-.144
G0 X-17.367 Y1.055
G0 X-17.618 Y2.287
G0 X-17.736 Y3.538
G0 X-17.722 Y4.794
G0 X-17.578 Y6.025
G0 X-17.3 Y7.25
G0 X-16.888 Y8.457
G0 X-16.356 Y9.595
G0 X-15.708 Y10.671
G0 X-14.948 Y11.673
G0 X-14.086 Y12.587
G0 X-13.133 Y13.408
G0 X-12.097 Y14.121
G0 X-10.994 Y14.719
G0 X-9.833 Y15.199
G0 X-8.626 Y15.551
G0 X-7.626 Y15.731
G0 X4.976 Y16.953
G0 X4.973 Y16.653
G1 F1500 X4.444 Y16.512 E97.23796
G1 X4.104 Y16.325 E97.25603
G1 X1.289 Y13.491 E97.44203
G1 X1.166 Y13.435 E97.44832
G1 X0.867 Y13.451 E97.46226
G1 X-.251 Y14.156 E97.52381
G1 X-1.364 Y14.702 E97.58153
G1 X-2.518 Y15.123 E97.63873
G1 X-3.709 Y15.418 E97.69587
G1 X-4.867 Y15.582 E97.75032
G1 X-6.162 Y15.625 E97.81066
G1 X-7.39 Y15.532 E97.868
G1 X-8.605 Y15.309 E97.92552
G1 X-9.721 Y14.985 E97.97964
G1 X-10.919 Y14.489 E98.04001
G1 X-11.948 Y13.93 E98.09454
G1 X-12.965 Y13.236 E98.15187
G1 X-13.94 Y12.396 E98.2118
G1 X-14.746 Y11.539 E98.26658
G1 X-15.493 Y10.559 E98.32396
G1 X-16.127 Y9.514 E98.38087
G1 X-16.679 Y8.333 E98.44157
G1 X-17.058 Y7.219 E98.49637
G1 X-17.335 Y6.012 E98.55403
G1 X-17.48 Y4.814 E98.61022
G1 X-17.497 Y3.554 E98.6689
G1 X-17.376 Y2.284 E98.7283
G1 X-17.128 Y1.089 E98.78513
G1 X-16.749 Y-0.094 E98.84297
G1 X-16.277 Y-1.168 E98.8976
G1 X-15.642 Y-2.277 E98.95711
G1 X-14.943 Y-3.245 E99.0127
G1 X-14.104 Y-4.18 E99.0712
G1 X-13.203 Y-4.99 E99.12762
G1 X-12.155 Y-5.745 E99.18776
G1 X-11.141 Y-6.324 E99.24213
G1 X-10.041 Y-6.81 E99.29813
G1 X-8.844 Y-7.196 E99.35669
G1 X-7.648 Y-7.442 E99.41355
G1 X-6.413 Y-7.561 E99.47132
G1 X-5.146 Y-7.547 E99.53032
G1 X-3.926 Y-7.402 E99.58753
G1 X-2.712 Y-7.122 E99.64554
G1 X-1.599 Y-6.743 E99.70029
G1 X-.475 Y-6.221 E99.758
G1 X0.583 Y-5.586 E99.81546
G1 X1.58 Y-4.831 E99.87369
G1 X2.465 Y-4.003 E99.93012
G1 X3.307 Y-3.02 E99.99039
