;FLAVOR:Marlin
;TIME:12138
;Filament used: 11.3102m
;Layer height: 0.2
;MINX:-85.967
;MINY:-38.552
;MINZ:0.28
;MAXX:67.632
;MAXY:35.048
;MAXZ:18.08
;Generated with Cura_SteamEngine 5.3.0
M82 ;absolute extrusion mode
;Start Gcode
G90 ;absolute positioning
M118 X25.00 Y25.00 Z20.00 T0
M140 S40 T0 ;Heat bed up to first layer temperature
M104 S200 T0 ;Set nozzle temperature to first layer temperature
M107 ;start with the fan off
G90
G28
M132 X Y Z A B
G1 Z50.000 F420
G161 X Y F3300
M7 T0
M6 T0
M651
M907 X100 Y100 Z40 A100 B20 ;Digital potentiometer value
M108 T0
;Purge line
G1 X-110.00 Y-60.00 F4800
G1 Z0.28 F420
G1 X-110.00 Y60.00 E17,4 F1200
;Purge line end
G92 E0
G92 E0
G1 F2400 E-1.3
;LAYER_COUNT:90
;LAYER:0
M107
G0 F3000 X50.832 Y35.048 Z0.28
;TYPE:SKIRT
G1 F2400 E0
G1 F1500 X-69.299 Y35.043 E5.5938
G1 X-70.949 Y34.95 E5.67076
G1 X-73.007 Y34.6 E5.76796
G1 X-74.812 Y34.071 E5.85554
G1 X-76.364 Y33.428 E5.93377
G1 X-78.037 Y32.512 E6.02258
G1 X-79.668 Y31.359 E6.11559
G1 X-81.088 Y30.082 E6.20452
G1 X-82.366 Y28.639 E6.29427
G1 X-83.373 Y27.213 E6.37556
G1 X-84.348 Y25.443 E6.46965
G1 X-85.037 Y23.761 E6.55429
G1 X-85.538 Y22.014 E6.63892
G1 X-85.864 Y20.074 E6.73052
G1 X-85.967 Y18.249 E6.81563
G1 X-85.962 Y-21.886 E8.68449
G1 X-85.849 Y-23.712 E8.76968
G1 X-85.541 Y-25.5 E8.85416
G1 X-85.02 Y-27.31 E8.94186
G1 X-84.307 Y-29.03 E9.02856
G1 X-83.43 Y-30.624 E9.11328
G1 X-82.251 Y-32.287 E9.2082
G1 X-81.1 Y-33.574 E9.2886
G1 X-79.56 Y-34.949 E9.38473
G1 X-78.132 Y-35.958 E9.46615
G1 X-76.364 Y-36.932 E9.56014
G1 X-74.812 Y-37.575 E9.63837
G1 X-72.897 Y-38.129 E9.73119
G1 X-71.127 Y-38.434 E9.81483
G1 X-69.167 Y-38.552 E9.90626
G1 X50.964 Y-38.547 E15.50006
G1 X52.614 Y-38.454 E15.57701
G1 X54.67 Y-38.104 E15.67412
G1 X56.309 Y-37.631 E15.75356
G1 X58.189 Y-36.851 E15.84833
G1 X59.702 Y-36.015 E15.92883
G1 X61.368 Y-34.835 E16.02389
G1 X62.655 Y-33.684 E16.10429
G1 X64.03 Y-32.144 E16.20042
G1 X65.038 Y-30.717 E16.28177
G1 X66.013 Y-28.948 E16.37583
G1 X66.656 Y-27.396 E16.45405
G1 X67.209 Y-25.483 E16.54678
G1 X67.514 Y-23.713 E16.63041
G1 X67.632 Y-21.753 E16.72184
G1 X67.627 Y18.38 E18.5906
G1 X67.534 Y20.03 E18.66755
G1 X67.185 Y22.083 E18.76452
G1 X66.685 Y23.806 E18.84806
G1 X65.972 Y25.526 E18.93476
G1 X65.071 Y27.16 E19.02165
G1 X63.944 Y28.748 E19.11232
G1 X62.765 Y30.071 E19.19484
G1 X61.225 Y31.446 E19.29097
G1 X59.797 Y32.454 E19.37236
G1 X58.029 Y33.428 E19.46635
G1 X56.477 Y34.071 E19.54458
G1 X54.562 Y34.625 E19.6374
G1 X52.792 Y34.93 E19.72104
G1 X50.832 Y35.048 E19.81247
G0 F3000 X50.832 Y34.648
G1 F1500 X-69.276 Y34.644 E25.4052
G1 X-70.926 Y34.551 E25.48215
G1 X-72.895 Y34.216 E25.57515
G1 X-74.659 Y33.701 E25.66072
G1 X-76.211 Y33.058 E25.73895
G1 X-77.845 Y32.161 E25.82574
G1 X-79.437 Y31.033 E25.9166
G1 X-80.789 Y29.817 E26.00127
G1 X-82.039 Y28.408 E26.08897
G1 X-83.046 Y26.982 E26.17026
G1 X-83.978 Y25.291 E26.26017
G1 X-84.652 Y23.651 E26.34273
G1 X-85.153 Y21.904 E26.42736
G1 X-85.465 Y20.051 E26.51486
G1 X-85.567 Y18.249 E26.5989
G1 X-85.563 Y-21.862 E28.46664
G1 X-85.455 Y-23.644 E28.54977
G1 X-85.147 Y-25.432 E28.63425
G1 X-84.65 Y-27.157 E28.71784
G1 X-83.937 Y-28.877 E28.80454
G1 X-83.08 Y-30.431 E28.88717
G1 X-81.953 Y-32.02 E28.97788
G1 X-80.802 Y-33.307 E29.05828
G1 X-79.329 Y-34.622 E29.15023
G1 X-77.901 Y-35.631 E29.23164
G1 X-76.211 Y-36.562 E29.32149
G1 X-74.659 Y-37.205 E29.39971
G1 X-72.829 Y-37.735 E29.48843
G1 X-71.059 Y-38.04 E29.57206
G1 X-69.167 Y-38.152 E29.66031
G1 X50.941 Y-38.148 E35.25305
G1 X52.591 Y-38.055 E35.33
G1 X54.559 Y-37.72 E35.42296
G1 X56.198 Y-37.247 E35.50239
G1 X57.996 Y-36.501 E35.59303
G1 X59.509 Y-35.665 E35.67352
G1 X61.101 Y-34.537 E35.76437
G1 X62.388 Y-33.386 E35.84477
G1 X63.703 Y-31.913 E35.93672
G1 X64.711 Y-30.486 E36.01807
G1 X65.643 Y-28.795 E36.10798
G1 X66.286 Y-27.243 E36.1862
G1 X66.815 Y-25.415 E36.27481
G1 X67.12 Y-23.645 E36.35845
G1 X67.232 Y-21.753 E36.4467
G1 X67.228 Y18.357 E38.31439
G1 X67.135 Y20.007 E38.39134
G1 X66.801 Y21.972 E38.48415
G1 X66.315 Y23.653 E38.56563
G1 X65.602 Y25.373 E38.65233
G1 X64.745 Y26.928 E38.73501
G1 X63.618 Y28.516 E38.82568
G1 X62.467 Y29.804 E38.90611
G1 X60.994 Y31.119 E38.99806
G1 X59.566 Y32.127 E39.07945
G1 X57.876 Y33.058 E39.16929
G1 X56.324 Y33.701 E39.24752
G1 X54.494 Y34.231 E39.33623
G1 X52.724 Y34.536 E39.41987
G1 X50.832 Y34.648 E39.50812
G0 F3000 X50.832 Y34.248
G1 F1500 X-69.253 Y34.245 E45.09978
G1 X-70.903 Y34.152 E45.17673
G1 X-72.783 Y33.832 E45.26553
G1 X-74.506 Y33.331 E45.34909
G1 X-76.058 Y32.688 E45.42731
G1 X-77.652 Y31.811 E45.51203
G1 X-79.17 Y30.735 E45.59867
G1 X-80.49 Y29.551 E45.68123
G1 X-81.712 Y28.177 E45.76686
G1 X-82.719 Y26.751 E45.84814
G1 X-83.608 Y25.138 E45.9339
G1 X-84.267 Y23.541 E46.01435
G1 X-84.768 Y21.794 E46.09898
G1 X-85.066 Y20.028 E46.18237
G1 X-85.167 Y18.249 E46.26534
G1 X-85.164 Y-21.838 E48.13196
G1 X-85.061 Y-23.576 E48.21303
G1 X-84.762 Y-25.322 E48.29552
G1 X-84.28 Y-27.004 E48.37699
G1 X-83.567 Y-28.724 E48.46369
G1 X-82.73 Y-30.237 E48.5442
G1 X-81.655 Y-31.753 E48.63074
G1 X-80.504 Y-33.04 E48.71114
G1 X-79.098 Y-34.295 E48.79889
G1 X-77.67 Y-35.304 E48.88031
G1 X-76.058 Y-36.192 E48.96601
G1 X-74.506 Y-36.835 E49.04423
G1 X-72.761 Y-37.341 E49.12884
G1 X-70.991 Y-37.646 E49.21247
G1 X-69.167 Y-37.752 E49.29755
G1 X50.918 Y-37.749 E54.88921
G1 X52.568 Y-37.656 E54.96616
G1 X54.448 Y-37.336 E55.05496
G1 X56.087 Y-36.863 E55.13439
G1 X57.803 Y-36.151 E55.2209
G1 X59.316 Y-35.315 E55.30139
G1 X60.834 Y-34.239 E55.38803
G1 X62.121 Y-33.088 E55.46843
G1 X63.376 Y-31.682 E55.55619
G1 X64.384 Y-30.255 E55.63754
G1 X65.273 Y-28.642 E55.7233
G1 X65.916 Y-27.09 E55.80152
G1 X66.421 Y-25.347 E55.88602
G1 X66.726 Y-23.577 E55.96966
G1 X66.832 Y-21.753 E56.05473
G1 X66.829 Y18.334 E57.92135
G1 X66.736 Y19.984 E57.9983
G1 X66.417 Y21.861 E58.08696
G1 X65.945 Y23.5 E58.16638
G1 X65.232 Y25.22 E58.25308
G1 X64.395 Y26.734 E58.33363
G1 X63.32 Y28.249 E58.42013
G1 X62.169 Y29.537 E58.50057
G1 X60.763 Y30.792 E58.58832
G1 X59.335 Y31.8 E58.66971
G1 X57.723 Y32.688 E58.75541
G1 X56.171 Y33.331 E58.83363
G1 X54.426 Y33.837 E58.91824
G1 X52.656 Y34.142 E59.00187
G1 X50.832 Y34.248 E59.08695
G0 F3000 X50.832 Y33.848
G1 F1500 X-69.23 Y33.846 E64.67754
G1 X-70.88 Y33.753 E64.75449
G1 X-72.672 Y33.448 E64.83913
G1 X-74.353 Y32.961 E64.92062
G1 X-75.905 Y32.318 E64.99885
G1 X-77.459 Y31.461 E65.08148
G1 X-78.903 Y30.437 E65.16391
G1 X-80.191 Y29.285 E65.24438
G1 X-81.385 Y27.946 E65.32791
G1 X-82.392 Y26.52 E65.4092
G1 X-83.238 Y24.985 E65.49081
G1 X-83.882 Y23.431 E65.56914
G1 X-84.383 Y21.684 E65.65377
G1 X-84.667 Y20.005 E65.73306
G1 X-84.767 Y18.249 E65.81496
G1 X-84.765 Y-21.815 E67.68051
G1 X-84.667 Y-23.508 E67.75947
G1 X-84.368 Y-25.254 E67.84196
G1 X-83.896 Y-26.893 E67.92138
G1 X-83.217 Y-28.53 E68.0039
G1 X-82.38 Y-30.043 E68.08441
G1 X-81.357 Y-31.486 E68.16678
G1 X-80.206 Y-32.773 E68.24718
G1 X-78.867 Y-33.968 E68.33075
G1 X-77.439 Y-34.977 E68.41216
G1 X-75.905 Y-35.822 E68.49371
G1 X-74.353 Y-36.465 E68.57194
G1 X-72.65 Y-36.957 E68.65448
G1 X-70.924 Y-37.252 E68.73601
G1 X-69.167 Y-37.352 E68.81796
G1 X50.895 Y-37.35 E74.40855
G1 X52.545 Y-37.257 E74.4855
G1 X54.337 Y-36.952 E74.57015
G1 X55.976 Y-36.479 E74.64958
G1 X57.61 Y-35.801 E74.73195
G1 X59.123 Y-34.965 E74.81245
G1 X60.567 Y-33.941 E74.89487
G1 X61.854 Y-32.79 E74.97527
G1 X63.049 Y-31.451 E75.05884
G1 X64.057 Y-30.024 E75.14019
G1 X64.903 Y-28.489 E75.22181
G1 X65.546 Y-26.937 E75.30003
G1 X66.037 Y-25.236 E75.38247
G1 X66.332 Y-23.51 E75.46401
G1 X66.432 Y-21.753 E75.54595
G1 X66.43 Y18.311 E77.4115
G1 X66.337 Y19.961 E77.48845
G1 X66.033 Y21.75 E77.57295
G1 X65.561 Y23.389 E77.65237
G1 X64.882 Y25.026 E77.73489
G1 X64.045 Y26.54 E77.81545
G1 X63.022 Y27.982 E77.89777
G1 X61.871 Y29.27 E77.97821
G1 X60.532 Y30.465 E78.06177
G1 X59.104 Y31.473 E78.14317
G1 X57.57 Y32.318 E78.22472
G1 X56.018 Y32.961 E78.30294
G1 X54.315 Y33.453 E78.38548
G1 X52.589 Y33.748 E78.46702
G1 X50.832 Y33.848 E78.54896
G0 F3000 X50.832 Y33.448
G1 F1500 X-69.207 Y33.447 E84.13848
G1 X-70.857 Y33.354 E84.21543
G1 X-72.561 Y33.064 E84.29592
G1 X-74.2 Y32.591 E84.37535
G1 X-75.752 Y31.948 E84.45358
G1 X-77.265 Y31.111 E84.53409
G1 X-78.636 Y30.139 E84.61235
G1 X-79.924 Y28.987 E84.69281
G1 X-81.059 Y27.715 E84.77219
G1 X-82.042 Y26.327 E84.85139
G1 X-82.868 Y24.832 E84.93092
G1 X-83.512 Y23.278 E85.00925
G1 X-83.989 Y21.617 E85.08972
G1 X-84.273 Y19.938 E85.16901
G1 X-84.367 Y18.249 E85.24778
G1 X-84.366 Y-21.792 E87.11226
G1 X-84.273 Y-23.441 E87.18916
G1 X-83.984 Y-25.143 E87.26955
G1 X-83.512 Y-26.782 E87.34897
G1 X-82.867 Y-28.336 E87.42732
G1 X-82.03 Y-29.849 E87.50783
G1 X-81.059 Y-31.219 E87.58602
G1 X-79.908 Y-32.506 E87.66642
G1 X-78.636 Y-33.642 E87.74583
G1 X-77.246 Y-34.627 E87.82516
G1 X-75.752 Y-35.452 E87.90463
G1 X-74.2 Y-36.095 E87.98285
G1 X-72.539 Y-36.573 E88.06333
G1 X-70.857 Y-36.858 E88.14277
G1 X-69.167 Y-36.952 E88.22159
G1 X50.872 Y-36.951 E93.8111
G1 X52.522 Y-36.858 E93.88806
G1 X54.226 Y-36.568 E93.96854
G1 X55.865 Y-36.095 E94.04798
G1 X57.417 Y-35.451 E94.12622
G1 X58.93 Y-34.615 E94.20671
G1 X60.3 Y-33.643 E94.28493
G1 X61.587 Y-32.492 E94.36533
G1 X62.723 Y-31.22 E94.44474
G1 X63.707 Y-29.83 E94.52404
G1 X64.533 Y-28.336 E94.60353
G1 X65.176 Y-26.784 E94.68175
G1 X65.653 Y-25.125 E94.76213
G1 X65.938 Y-23.443 E94.84157
G1 X66.032 Y-21.753 E94.92039
G1 X66.031 Y18.288 E96.78486
G1 X65.938 Y19.938 E96.86182
G1 X65.649 Y21.639 E96.94216
G1 X65.177 Y23.278 E97.02158
G1 X64.532 Y24.832 E97.09992
G1 X63.695 Y26.346 E97.18048
G1 X62.724 Y27.715 E97.25863
G1 X61.573 Y29.003 E97.33906
G1 X60.301 Y30.139 E97.41848
G1 X58.911 Y31.123 E97.49778
G1 X57.417 Y31.948 E97.57724
G1 X55.865 Y32.591 E97.65547
G1 X54.204 Y33.069 E97.73595
G1 X52.522 Y33.354 E97.81539
G1 X50.832 Y33.448 E97.8942
G1 F2400 E96.5942
G0 F3000 X5.74 Y0.00
;TYPE:SUPPORT
G1 F2400 E97.8942
G1 F1500 X3.923 Y0.00 E97.97881
G1 F2400 E96.67881
G0 F3000 X5.334 Y0.158
G1 F2400 E97.97881
G1 F1500 X5.334 Y-3.661 E98.15664
G1 F2400 E96.85664
G0 F3000 X6.598 Y-2.666
G1 F2400 E98.15664
G1 F1500 X3.068 Y-2.667 E98.32101
G1 F2400 E97.02101
G0 F3000 X-.401 Y-2.667
G1 F2400 E98.32101
G1 F1500 X-3.931 Y-2.667 E98.48538
G1 F2400 E97.18538
G0 F3000 X-2.667 Y-3.662
G1 F2400 E98.48538
G1 F1500 X-2.667 Y0.159 E98.6633
G0 F3000 X-3.079 Y0.00
G1 F1500 X-1.258 Y0.00 E98.7481
G1 F2400 E97.4481
;MESH:Base superior(suporte).stl
G0 F3000 X-1.084 Y1.107
G0 X-2.63 Y1.773
G0 X-2.559 Y1.482
;TYPE:WALL-INNER
G1 F2400 E98.7481
G1 F1500 X-3.333 Y1.287 E98.78526
G1 X-4.014 Y0.931 E98.82105
G1 X-4.607 Y0.407 E98.85789
G1 X-5.055 Y-.244 E98.89469
G1 X-5.329 Y-.967 E98.93069
G1 X-5.425 Y-1.758 E98.9678
G1 X-5.331 Y-2.534 E99.0042
G1 X-5.047 Y-3.275 E99.04115
G1 X-4.609 Y-3.908 E99.07699
G1 X-4.019 Y-4.432 E99.11373
G1 X-3.317 Y-4.799 E99.15062
G1 X-2.563 Y-4.986 E99.18679
G1 X-1.769 Y-4.986 E99.22376
G1 X-1.025 Y-4.801 E99.25946
G1 X-.304 Y-4.424 E99.29735
G1 X0.263 Y-3.915 E99.33283
G1 F1477.8 X0.718 Y-3.268 E99.37021
G1 F1432 X0.993 Y-2.538 E99.40826
G1 F1388.9 X1.121 Y-1.752 E99.44831
G1 X0.993 Y-.966 E99.48836
G1 F1452.8 X0.719 Y-.239 E99.52571
G1 F1500 X0.282 Y0.395 E99.56156
G1 X-.303 Y0.918 E99.5981
G1 X-1 Y1.289 E99.63487
G1 X-1.775 Y1.482 E99.67206
G1 X-2.559 Y1.482 E99.70857
G0 F3000 X-2.63 Y1.773
G0 X5.219 Y1.782
G0 X5.219 Y1.482
G1 F1500 X4.435 Y1.482 E99.74507
G1 X3.664 Y1.289 E99.78208
G1 X2.97 Y0.919 E99.8187
G1 X2.384 Y0.395 E99.85531
G1 X1.947 Y-.238 E99.89112
G1 F1452.8 X1.672 Y-.962 E99.92836
G1 F1388.9 X1.545 Y-1.752 E99.9686
G1 X1.672 Y-2.542 E100.00884
G1 F1432 X1.948 Y-3.268 E100.04672
G1 F1477.8 X2.402 Y-3.915 E100.08408
G1 F1500 X2.969 Y-4.423 E100.11952
G1 X3.684 Y-4.8 E100.15716
G1 X4.441 Y-4.986 E100.19346
G1 X5.227 Y-4.986 E100.23006
G1 X5.986 Y-4.797 E100.26648
G1 X6.687 Y-4.431 E100.3033
G1 X7.274 Y-3.908 E100.33991
G1 X7.712 Y-3.275 E100.37575
G1 X7.995 Y-2.535 E100.41265
G1 X8.087 Y-1.751 E100.4494
G1 X7.997 Y-.98 E100.48555
G1 X7.721 Y-.244 E100.52215
G1 X7.27 Y0.41 E100.55914
G1 X6.687 Y0.927 E100.59542
G1 X5.981 Y1.298 E100.63256
G1 X5.219 Y1.482 E100.66906
G0 F3000 X5.219 Y1.782
G0 X50.803 Y32.349
G0 X50.812 Y32.648
G1 F1500 X52.448 Y32.556 E100.74536
G1 X54.038 Y32.286 E100.82046
G1 X55.584 Y31.839 E100.8954
G1 X57.085 Y31.218 E100.97104
G1 X58.489 Y30.442 E101.04573
G1 X59.808 Y29.506 E101.12104
G1 X61.017 Y28.426 E101.19653
G1 X62.091 Y27.221 E101.27169
G1 X63.026 Y25.905 E101.34686
G1 X63.802 Y24.5 E101.4216
G1 X64.424 Y22.999 E101.49726
G1 X64.872 Y21.448 E101.57243
G1 X65.14 Y19.864 E101.64724
G1 X65.231 Y18.257 E101.72218
G1 X65.231 Y-21.738 E103.58452
G1 X65.14 Y-23.367 E103.66049
G1 X64.87 Y-24.96 E103.73573
G1 X64.424 Y-26.503 E103.81052
G1 X63.802 Y-28.004 E103.88617
G1 X63.026 Y-29.408 E103.96087
G1 X62.092 Y-30.725 E104.03605
G1 X61.01 Y-31.936 E104.11167
G1 X59.806 Y-33.011 E104.18683
G1 X58.489 Y-33.946 E104.26203
G1 X57.085 Y-34.721 E104.33671
G1 X55.584 Y-35.343 E104.41237
G1 X54.038 Y-35.79 E104.4873
G1 X52.448 Y-36.06 E104.5624
G1 X50.841 Y-36.151 E104.63735
G1 X-69.147 Y-36.151 E110.22449
G1 X-70.783 Y-36.06 E110.30079
G1 X-72.373 Y-35.79 E110.37589
G1 X-73.919 Y-35.343 E110.45082
G1 X-75.42 Y-34.721 E110.52648
G1 X-76.824 Y-33.946 E110.60115
G1 X-78.141 Y-33.011 E110.67636
G1 X-79.352 Y-31.929 E110.75198
G1 X-80.426 Y-30.725 E110.82711
G1 X-81.361 Y-29.408 E110.90232
G1 X-82.137 Y-28.004 E110.97701
G1 X-82.759 Y-26.503 E111.05267
G1 X-83.207 Y-24.952 E111.12784
G1 X-83.475 Y-23.367 E111.20269
G1 X-83.565 Y-21.761 E111.27759
G1 X-83.567 Y18.234 E113.13993
G1 X-83.475 Y19.864 E113.21595
G1 X-83.207 Y21.448 E113.29076
G1 X-82.759 Y22.999 E113.36593
G1 X-82.137 Y24.5 E113.44158
G1 X-81.361 Y25.905 E113.51632
G1 X-80.426 Y27.221 E113.59149
G1 X-79.352 Y28.426 E113.66665
G1 X-78.143 Y29.506 E113.74214
G1 X-76.824 Y30.442 E113.81745
G1 X-75.42 Y31.218 E113.89215
G1 X-73.919 Y31.839 E113.96779
G1 X-72.373 Y32.286 E114.04273
G1 X-70.783 Y32.556 E114.11782
G1 X-69.176 Y32.647 E114.19277
G1 X50.812 Y32.648 E119.77991
G0 F3000 X50.823 Y33.048
;TYPE:WALL-OUTER
G1 F1500 X52.493 Y32.954 E119.8578
G1 X54.127 Y32.676 E119.93498
G1 X55.716 Y32.217 E120.01199
G1 X57.259 Y31.579 E120.08974
G1 X58.702 Y30.781 E120.16653
G1 X60.058 Y29.819 E120.24394
G1 X61.301 Y28.709 E120.32154
G1 X62.405 Y27.471 E120.39878
G1 X63.365 Y26.118 E120.47603
G1 X64.163 Y24.674 E120.55285
G1 X64.802 Y23.131 E120.63062
G1 X65.262 Y21.537 E120.70787
G1 X65.538 Y19.909 E120.78476
G1 X65.631 Y18.268 E120.86129
G1 X65.631 Y-21.749 E122.72465
G1 X65.538 Y-23.412 E122.80221
G1 X65.26 Y-25.049 E122.87952
G1 X64.802 Y-26.635 E122.95639
G1 X64.163 Y-28.178 E123.03416
G1 X63.365 Y-29.621 E123.11094
G1 X62.405 Y-30.975 E123.18823
G1 X61.293 Y-32.22 E123.26596
G1 X60.056 Y-33.324 E123.34316
G1 X58.702 Y-34.285 E123.42048
G1 X57.259 Y-35.082 E123.49724
G1 X55.716 Y-35.721 E123.575
G1 X54.127 Y-36.18 E123.65202
G1 X52.493 Y-36.458 E123.7292
G1 X50.852 Y-36.551 E123.80573
G1 X-69.158 Y-36.551 E129.3939
G1 X-70.828 Y-36.458 E129.47178
G1 X-72.462 Y-36.18 E129.54896
G1 X-74.051 Y-35.721 E129.62598
G1 X-75.594 Y-35.082 E129.70374
G1 X-77.037 Y-34.285 E129.7805
G1 X-78.391 Y-33.324 E129.85782
G1 X-79.636 Y-32.212 E129.93555
G1 X-80.74 Y-30.975 E130.01275
G1 X-81.7 Y-29.621 E130.09004
G1 X-82.498 Y-28.178 E130.16682
G1 X-83.137 Y-26.635 E130.24458
G1 X-83.597 Y-25.041 E130.32184
G1 X-83.873 Y-23.412 E130.39877
G1 X-83.965 Y-21.772 E130.47526
G1 X-83.967 Y18.245 E132.33862
G1 X-83.873 Y19.909 E132.41622
G1 X-83.597 Y21.537 E132.49311
G1 X-83.137 Y23.131 E132.57036
G1 X-82.498 Y24.674 E132.64813
G1 X-81.7 Y26.118 E132.72495
G1 X-80.74 Y27.471 E132.8022
G1 X-79.636 Y28.709 E132.87944
G1 X-78.393 Y29.819 E132.95704
G1 X-77.037 Y30.781 E133.03445
G1 X-75.594 Y31.579 E133.11124
G1 X-74.051 Y32.217 E133.18898
G1 X-72.462 Y32.676 E133.266
G1 X-70.828 Y32.954 E133.34318
G1 X-69.187 Y33.047 E133.41971
G1 X50.823 Y33.048 E139.00788
G0 F3000 X51.022 Y33.037
G0 X50.984 Y32.338
G0 X5.172 Y1.782
G0 X5.172 Y1.082
G1 F1500 X4.492 Y1.082 E139.03955
