;FLAVOR:Marlin
;TIME:20163
;Filament used: 19.187m
;Layer height: 0.2
;MINX:-100.627
;MINY:-68.034
;MINZ:0.28
;MAXX:72.973
;MAXY:55.265
;MAXZ:25.08
;Generated with Cura_SteamEngine 5.3.0
M82 ;absolute extrusion mode
;Start Gcode
G90 ;absolute positioning
M118 X25.00 Y25.00 Z20.00 T0
M140 S40 T0 ;Heat bed up to first layer temperature
M104 S200 T0 ;Set nozzle temperature to first layer temperature
M107 ;start with the fan off
G90
G28
M132 X Y Z A B
G1 Z50.000 F420
G161 X Y F3300
M7 T0
M6 T0
M651
M907 X100 Y100 Z40 A100 B20 ;Digital potentiometer value
M108 T0
;Purge line
G1 X-110.00 Y-60.00 F4800
G1 Z0.28 F420
G1 X-110.00 Y60.00 E17,4 F1200
;Purge line end
G92 E0
G92 E0
G1 F2400 E-1.3
;LAYER_COUNT:125
;LAYER:0
M107
G0 F3000 X2.478 Y0.756 Z0.28
;TYPE:SKIRT
G1 F2400 E0
G1 F1500 X1.857 Y4.306 E0.16781
G1 X0.961 Y7.913 E0.34087
G1 X-.116 Y11.237 E0.50358
G1 X-.462 Y12.099 E0.54683
G1 X71.257 Y12.099 E3.88636
G1 X71.779 Y12.223 E3.91135
G1 X72.311 Y12.504 E3.93936
G1 X72.623 Y12.876 E3.96197
G1 X72.896 Y13.425 E3.99052
G1 X72.973 Y13.899 E4.01288
G1 X72.973 Y53.538 E5.85864
G1 X72.814 Y54.206 E5.89061
G1 X72.48 Y54.701 E5.91842
G1 X72.181 Y54.961 E5.93687
G1 X71.76 Y55.178 E5.95892
G1 X71.389 Y55.265 E5.97667
G1 X70.751 Y55.24 E6.0064
G1 X-14.328 Y32.222 E10.11046
G1 X-16.392 Y34.003 E10.2374
G1 X-19.368 Y36.221 E10.41023
G1 X-22.62 Y38.293 E10.58978
G1 X-25.939 Y40.081 E10.76533
G1 X-29.363 Y41.618 E10.94009
G1 X-32.823 Y42.88 E11.11159
G1 X-36.5 Y43.926 E11.28959
G1 X-40.078 Y44.67 E11.45976
G1 X-43.873 Y45.175 E11.63803
G1 X-47.649 Y45.399 E11.81417
G1 X-51.402 Y45.35 E11.98894
G1 X-55.027 Y45.042 E12.15834
G1 X-58.736 Y44.457 E12.33318
G1 X-62.503 Y43.575 E12.51334
G1 X-65.977 Y42.491 E12.68279
G1 X-69.579 Y41.074 E12.86303
G1 X-72.859 Y39.502 E13.03239
G1 X-76.121 Y37.638 E13.20734
G1 X-79.321 Y35.487 E13.38688
G1 X-82.195 Y33.234 E13.55692
G1 X-85.061 Y30.632 E13.73717
G1 X-87.561 Y28.008 E13.90593
G1 X-90.03 Y25.008 E14.08685
G1 X-92.132 Y22.038 E14.25628
G1 X-94.1 Y18.78 E14.43351
G1 X-95.831 Y15.379 E14.61121
G1 X-97.244 Y12.025 E14.78068
G1 X-98.449 Y8.471 E14.95542
G1 X-99.394 Y4.84 E15.13013
G1 X-100.093 Y1.03 E15.3105
G1 X-100.487 Y-2.587 E15.47992
G1 X-100.627 Y-6.452 E15.66001
G1 X-100.486 Y-10.201 E15.8347
G1 X-100.091 Y-13.817 E16.00408
G1 X-99.392 Y-17.629 E16.18454
G1 X-98.449 Y-21.244 E16.3585
G1 X-97.239 Y-24.812 E16.53393
G1 X-95.825 Y-28.164 E16.70334
G1 X-94.107 Y-31.539 E16.87968
G1 X-92.184 Y-34.728 E17.05308
G1 X-89.949 Y-37.884 E17.23316
G1 X-87.561 Y-40.781 E17.40798
G1 X-85.061 Y-43.405 E17.57674
G1 X-82.184 Y-46.015 E17.75761
G1 X-79.321 Y-48.259 E17.927
G1 X-76.132 Y-50.404 E18.10596
G1 X-72.859 Y-52.275 E18.28151
G1 X-69.566 Y-53.853 E18.45154
G1 X-65.963 Y-55.269 E18.6318
G1 X-62.489 Y-56.351 E18.80123
G1 X-58.721 Y-57.232 E18.98141
G1 X-55.027 Y-57.815 E19.15555
G1 X-51.387 Y-58.124 E19.32565
G1 X-47.636 Y-58.172 E19.50033
G1 X-43.873 Y-57.948 E19.67586
G1 X-40.05 Y-57.438 E19.85545
G1 X-36.472 Y-56.693 E20.02563
G1 X-32.877 Y-55.67 E20.19968
G1 X-29.255 Y-54.347 E20.37923
G1 X-25.926 Y-52.848 E20.54923
G1 X-22.62 Y-51.066 E20.72412
G1 X-19.368 Y-48.994 E20.90367
G1 X-16.393 Y-46.777 E21.07643
G1 X-14.328 Y-44.995 E21.20344
G1 X70.752 Y-68.014 E25.30756
G1 X71.437 Y-68.034 E25.33947
G1 X72.008 Y-67.835 E25.36762
G1 X72.425 Y-67.522 E25.3919
G1 X72.653 Y-67.244 E25.40864
G1 X72.869 Y-66.819 E25.43084
G1 X72.973 Y-66.264 E25.45714
G1 X72.973 Y-26.672 E27.30071
G1 X72.878 Y-26.12 E27.32679
G1 X72.568 Y-25.534 E27.35766
G1 X72.196 Y-25.222 E27.38026
G1 X71.647 Y-24.949 E27.40881
G1 X71.173 Y-24.872 E27.43118
G1 X-.461 Y-24.872 E30.76675
G1 X-.116 Y-24.011 E30.80995
G1 X0.965 Y-20.673 E30.97332
G1 X1.86 Y-17.066 E31.14637
G1 X2.48 Y-13.514 E31.31427
G1 X2.852 Y-9.928 E31.48215
G1 X2.973 Y-6.324 E31.65006
G1 X2.851 Y-2.832 E31.81276
G1 X2.478 Y0.756 E31.98073
G0 F3000 X2.08 Y0.715
G1 F1500 X1.463 Y4.237 E32.14723
G1 X0.58 Y7.79 E32.3177
G1 X-.497 Y11.114 E32.4804
G1 X-1.053 Y12.499 E32.5499
G1 X71.215 Y12.499 E35.915
G1 X71.592 Y12.577 E35.93293
G1 X72.056 Y12.822 E35.95736
G1 X72.265 Y13.054 E35.9719
G1 X72.511 Y13.548 E35.9976
G1 X72.573 Y13.899 E36.01419
G1 X72.573 Y53.491 E37.85776
G1 X72.442 Y54.041 E37.88409
G1 X72.148 Y54.477 E37.90858
G1 X71.933 Y54.647 E37.92134
G1 X71.648 Y54.794 E37.93627
G1 X71.404 Y54.865 E37.9481
G1 X70.809 Y54.842 E37.97583
G1 X-14.429 Y31.781 E42.08756
G1 X-16.631 Y33.682 E42.22302
G1 X-19.607 Y35.9 E42.39585
G1 X-22.81 Y37.941 E42.5727
G1 X-26.103 Y39.716 E42.74689
G1 X-29.5 Y41.242 E42.9203
G1 X-32.96 Y42.504 E43.09179
G1 X-36.582 Y43.534 E43.26714
G1 X-40.131 Y44.273 E43.43594
G1 X-43.926 Y44.778 E43.6142
G1 X-47.644 Y44.999 E43.78764
G1 X-51.368 Y44.951 E43.96106
G1 X-54.993 Y44.643 E44.13046
G1 X-58.674 Y44.062 E44.30398
G1 X-62.384 Y43.193 E44.48141
G1 X-65.858 Y42.109 E44.65087
G1 X-69.406 Y40.713 E44.82841
G1 X-72.686 Y39.141 E44.99777
G1 X-75.922 Y37.291 E45.17134
G1 X-79.074 Y35.172 E45.34819
G1 X-81.948 Y32.919 E45.51824
G1 X-84.771 Y30.356 E45.69578
G1 X-87.271 Y27.732 E45.86454
G1 X-89.703 Y24.777 E46.04275
G1 X-91.805 Y21.807 E46.21218
G1 X-93.744 Y18.598 E46.38676
G1 X-95.462 Y15.224 E46.56306
G1 X-96.875 Y11.87 E46.73253
G1 X-98.07 Y8.343 E46.90594
G1 X-99.007 Y4.739 E47.07933
G1 X-99.695 Y0.987 E47.25695
G1 X-100.089 Y-2.63 E47.42637
G1 X-100.227 Y-6.437 E47.60376
G1 X-100.088 Y-10.158 E47.77715
G1 X-99.693 Y-13.774 E47.94652
G1 X-99.005 Y-17.528 E48.12424
G1 X-98.07 Y-21.116 E48.29689
G1 X-96.87 Y-24.657 E48.47098
G1 X-95.456 Y-28.009 E48.64039
G1 X-93.751 Y-31.357 E48.81533
G1 X-91.842 Y-34.521 E48.9874
G1 X-89.64 Y-37.63 E49.1648
G1 X-87.271 Y-40.505 E49.33827
G1 X-84.771 Y-43.129 E49.50703
G1 X-81.937 Y-45.7 E49.6852
G1 X-79.074 Y-47.944 E49.85459
G1 X-75.909 Y-50.072 E50.03218
G1 X-72.686 Y-51.914 E50.20503
G1 X-69.393 Y-53.492 E50.37507
G1 X-65.844 Y-54.887 E50.55263
G1 X-62.37 Y-55.969 E50.72206
G1 X-58.659 Y-56.837 E50.89952
G1 X-54.993 Y-57.416 E51.07234
G1 X-51.353 Y-57.725 E51.24245
G1 X-47.631 Y-57.772 E51.41577
G1 X-43.926 Y-57.551 E51.5886
G1 X-40.132 Y-57.046 E51.76682
G1 X-36.554 Y-56.301 E51.937
G1 X-32.987 Y-55.285 E52.1097
G1 X-29.419 Y-53.982 E52.28658
G1 X-26.09 Y-52.483 E52.45658
G1 X-22.81 Y-50.714 E52.6301
G1 X-19.607 Y-48.673 E52.80696
G1 X-16.632 Y-46.456 E52.97972
G1 X-14.429 Y-44.554 E53.11524
G1 X70.809 Y-67.615 E57.22698
G1 X71.374 Y-67.632 E57.2533
G1 X71.876 Y-67.457 E57.27805
G1 X72.116 Y-67.268 E57.29228
G1 X72.344 Y-66.99 E57.30902
G1 X72.477 Y-66.74 E57.3222
G1 X72.573 Y-66.264 E57.34481
G1 X72.573 Y-26.672 E59.18838
G1 X72.495 Y-26.253 E59.20823
G1 X72.25 Y-25.789 E59.23266
G1 X72.018 Y-25.58 E59.2472
G1 X71.524 Y-25.334 E59.2729
G1 X71.173 Y-25.272 E59.2895
G1 X-1.053 Y-25.272 E62.65264
G1 X-.497 Y-23.888 E62.72209
G1 X0.584 Y-20.55 E62.88547
G1 X1.466 Y-16.997 E63.05593
G1 X2.082 Y-13.473 E63.22252
G1 X2.452 Y-9.914 E63.38913
G1 X2.573 Y-6.338 E63.55574
G1 X2.451 Y-2.846 E63.71844
G1 X2.08 Y0.715 E63.88515
G0 F3000 X1.682 Y0.673
G1 F1500 X1.069 Y4.168 E64.05038
G1 X0.199 Y7.667 E64.21827
G1 X-.878 Y10.991 E64.38097
G1 X-1.645 Y12.899 E64.47672
G1 X71.173 Y12.899 E67.86743
G1 X71.511 Y12.969 E67.88351
G1 X71.774 Y13.106 E67.89732
G1 X71.913 Y13.244 E67.90644
G1 X72.119 Y13.626 E67.92664
G1 X72.173 Y13.899 E67.9396
G1 X72.173 Y53.491 E69.78317
G1 X72.103 Y53.829 E69.79925
G1 X71.887 Y54.174 E69.8182
G1 X71.75 Y54.292 E69.82662
G1 X71.465 Y54.439 E69.84155
G1 X71.311 Y54.476 E69.84893
G1 X70.913 Y54.456 E69.86748
G1 X-14.53 Y31.34 E73.9891
G1 X-16.87 Y33.361 E74.13307
G1 X-19.846 Y35.579 E74.3059
G1 X-23 Y37.589 E74.48005
G1 X-26.267 Y39.351 E74.65289
G1 X-29.637 Y40.866 E74.82494
G1 X-33.07 Y42.119 E74.99511
G1 X-36.664 Y43.142 E75.16911
G1 X-40.213 Y43.881 E75.33791
G1 X-43.95 Y44.379 E75.51346
G1 X-47.639 Y44.599 E75.68554
G1 X-51.334 Y44.552 E75.85761
G1 X-54.959 Y44.244 E76.02701
G1 X-58.612 Y43.667 E76.19922
G1 X-62.265 Y42.811 E76.37392
G1 X-65.739 Y41.727 E76.54338
G1 X-69.233 Y40.352 E76.71822
G1 X-72.513 Y38.78 E76.88759
G1 X-75.723 Y36.944 E77.05978
G1 X-78.827 Y34.857 E77.23395
G1 X-81.701 Y32.604 E77.40399
G1 X-84.481 Y30.08 E77.57883
G1 X-86.981 Y27.456 E77.7476
G1 X-89.376 Y24.546 E77.92309
G1 X-91.478 Y21.576 E78.09252
G1 X-93.402 Y18.391 E78.26578
G1 X-95.093 Y15.069 E78.43936
G1 X-96.506 Y11.715 E78.60883
G1 X-97.691 Y8.215 E78.78089
G1 X-98.62 Y4.638 E78.95297
G1 X-99.297 Y0.944 E79.12785
G1 X-99.691 Y-2.673 E79.29727
G1 X-99.827 Y-6.422 E79.47195
G1 X-99.69 Y-10.115 E79.64403
G1 X-99.295 Y-13.731 E79.81341
G1 X-98.618 Y-17.427 E79.98837
G1 X-97.691 Y-20.988 E80.15971
G1 X-96.501 Y-24.502 E80.33247
G1 X-95.087 Y-27.854 E80.50187
G1 X-93.409 Y-31.15 E80.67409
G1 X-91.5 Y-34.314 E80.84616
G1 X-89.331 Y-37.376 E81.02088
G1 X-86.981 Y-40.229 E81.193
G1 X-84.481 Y-42.853 E81.36176
G1 X-81.69 Y-45.385 E81.53723
G1 X-78.827 Y-47.629 E81.70661
G1 X-75.71 Y-49.725 E81.88152
G1 X-72.513 Y-51.553 E82.053
G1 X-69.22 Y-53.131 E82.22303
G1 X-65.725 Y-54.505 E82.3979
G1 X-62.251 Y-55.587 E82.56733
G1 X-58.597 Y-56.442 E82.74207
G1 X-54.959 Y-57.017 E82.91357
G1 X-51.319 Y-57.326 E83.08367
G1 X-47.626 Y-57.372 E83.25565
G1 X-43.95 Y-57.152 E83.42713
G1 X-40.214 Y-56.654 E83.60263
G1 X-36.636 Y-55.909 E83.77281
G1 X-33.097 Y-54.9 E83.94416
G1 X-29.583 Y-53.617 E84.11836
G1 X-26.254 Y-52.118 E84.28836
G1 X-23 Y-50.362 E84.46053
G1 X-19.846 Y-48.352 E84.63468
G1 X-16.871 Y-46.135 E84.80745
G1 X-14.53 Y-44.113 E84.95149
G1 X70.913 Y-67.229 E89.0731
G1 X71.258 Y-67.249 E89.08919
G1 X71.642 Y-67.133 E89.10787
G1 X71.807 Y-67.014 E89.11735
G1 X72.035 Y-66.736 E89.13409
G1 X72.117 Y-66.566 E89.14288
G1 X72.173 Y-66.264 E89.15718
G1 X72.173 Y-26.672 E91.00075
G1 X72.103 Y-26.334 E91.01682
G1 X71.966 Y-26.071 E91.03063
G1 X71.828 Y-25.932 E91.03975
G1 X71.446 Y-25.726 E91.05996
G1 X71.173 Y-25.672 E91.07292
G1 X-1.645 Y-25.672 E94.46363
G1 X-.878 Y-23.765 E94.55934
G1 X0.203 Y-20.427 E94.72272
G1 X1.072 Y-16.928 E94.8906
G1 X1.684 Y-13.432 E95.05586
G1 X2.052 Y-9.9 E95.22121
G1 X2.173 Y-6.352 E95.38652
G1 X2.051 Y-2.86 E95.54922
G1 X1.682 Y0.673 E95.71463
G0 F3000 X1.284 Y0.631
G1 F1500 X0.675 Y4.099 E95.87858
G1 X-.182 Y7.544 E96.04389
G1 X-1.259 Y10.868 E96.20659
G1 X-2.237 Y13.299 E96.3286
G1 X71.173 Y13.299 E99.74688
G1 X71.417 Y13.358 E99.75857
G1 X71.569 Y13.449 E99.76682
G1 X71.73 Y13.719 E99.78145
G1 X71.773 Y13.899 E99.79007
G1 X71.773 Y53.491 E101.63364
G1 X71.714 Y53.735 E101.64533
G1 X71.565 Y53.937 E101.65702
G1 X71.298 Y54.076 E101.67104
G1 X71.017 Y54.07 E101.68412
G1 X-14.632 Y30.898 E105.81568
G1 X-17.132 Y33.058 E105.96952
G1 X-20.085 Y35.258 E106.14099
G1 X-23.19 Y37.237 E106.31244
G1 X-26.431 Y38.986 E106.48393
G1 X-29.774 Y40.49 E106.65462
G1 X-33.207 Y41.743 E106.82479
G1 X-36.746 Y42.75 E106.99612
G1 X-40.295 Y43.489 E107.16492
G1 X-43.974 Y43.98 E107.33775
G1 X-47.634 Y44.199 E107.50848
G1 X-51.3 Y44.153 E107.6792
G1 X-54.925 Y43.845 E107.8486
G1 X-58.55 Y43.272 E108.01949
G1 X-62.146 Y42.429 E108.19148
G1 X-65.62 Y41.345 E108.36093
G1 X-69.06 Y39.991 E108.53308
G1 X-72.34 Y38.419 E108.70244
G1 X-75.524 Y36.597 E108.87326
G1 X-78.58 Y34.542 E109.04474
G1 X-81.454 Y32.289 E109.21479
G1 X-84.191 Y29.804 E109.38693
G1 X-86.691 Y27.18 E109.55569
G1 X-89.049 Y24.315 E109.72847
G1 X-91.151 Y21.345 E109.89789
G1 X-93.046 Y18.209 E110.06851
G1 X-94.724 Y14.914 E110.24069
G1 X-96.137 Y11.56 E110.41016
G1 X-97.312 Y8.087 E110.58088
G1 X-98.233 Y4.538 E110.75161
G1 X-98.899 Y0.901 E110.92378
G1 X-99.293 Y-2.716 E111.0932
G1 X-99.427 Y-6.407 E111.26518
G1 X-99.292 Y-10.072 E111.43596
G1 X-98.897 Y-13.688 E111.60533
G1 X-98.231 Y-17.326 E111.77755
G1 X-97.312 Y-20.86 E111.94758
G1 X-96.132 Y-24.347 E112.11899
G1 X-94.718 Y-27.699 E112.2884
G1 X-93.053 Y-30.968 E112.45922
G1 X-91.158 Y-34.107 E112.62996
G1 X-89.022 Y-37.122 E112.80201
G1 X-86.691 Y-39.953 E112.97277
G1 X-84.191 Y-42.577 E113.14153
G1 X-81.443 Y-45.07 E113.3143
G1 X-78.58 Y-47.314 E113.48368
G1 X-75.511 Y-49.378 E113.6559
G1 X-72.34 Y-51.192 E113.82601
G1 X-69.047 Y-52.77 E113.99604
G1 X-65.606 Y-54.123 E114.16821
G1 X-62.132 Y-55.205 E114.33763
G1 X-58.535 Y-56.047 E114.50965
G1 X-54.925 Y-56.618 E114.67984
G1 X-51.285 Y-56.927 E114.84994
G1 X-47.621 Y-56.972 E115.02057
G1 X-43.974 Y-56.753 E115.19069
G1 X-40.296 Y-56.262 E115.36348
G1 X-36.718 Y-55.517 E115.53366
G1 X-33.207 Y-54.515 E115.70367
G1 X-29.747 Y-53.252 E115.87518
G1 X-26.418 Y-51.753 E116.04518
G1 X-23.19 Y-50.01 E116.216
G1 X-20.085 Y-48.031 E116.38746
G1 X-17.133 Y-45.832 E116.55886
G1 X-14.632 Y-43.671 E116.71277
G1 X71.017 Y-66.843 E120.84432
G1 X71.268 Y-66.849 E120.85601
G1 X71.498 Y-66.76 E120.8675
G1 X71.726 Y-66.482 E120.88424
G1 X71.773 Y-66.264 E120.89462
G1 X71.773 Y-26.672 E122.73819
G1 X71.714 Y-26.428 E122.74988
G1 X71.623 Y-26.276 E122.75813
G1 X71.353 Y-26.115 E122.77277
G1 X71.173 Y-26.072 E122.78139
G1 X-2.237 Y-26.072 E126.19966
G1 X-1.259 Y-23.642 E126.32164
G1 X-.178 Y-20.304 E126.48501
G1 X0.678 Y-16.859 E126.65031
G1 X1.286 Y-13.39 E126.8143
G1 X1.652 Y-9.886 E126.97835
G1 X1.773 Y-6.366 E127.14235
G1 X1.651 Y-2.874 E127.30505
G1 X1.284 Y0.631 E127.46915
G0 F3000 X0.886 Y0.589
G1 F1500 X0.281 Y4.03 E127.63184
G1 X-.563 Y7.421 E127.79455
G1 X-1.64 Y10.745 E127.95725
G1 X-2.829 Y13.699 E128.10553
G1 X71.173 Y13.699 E131.55137
G1 X71.292 Y13.738 E131.5572
G1 X71.373 Y13.899 E131.5656
G1 X71.373 Y53.491 E133.40916
G1 X71.334 Y53.61 E133.415
G1 X71.232 Y53.682 E133.42081
G1 X71.121 Y53.684 E133.42598
G1 X-14.734 Y30.456 E137.56748
G1 X-17.394 Y32.755 E137.73119
G1 X-20.324 Y34.937 E137.9013
G1 X-23.38 Y36.885 E138.07005
G1 X-26.595 Y38.621 E138.24018
G1 X-29.911 Y40.114 E138.40952
G1 X-33.317 Y41.358 E138.57836
G1 X-36.828 Y42.358 E138.74835
G1 X-40.377 Y43.097 E138.91715
G1 X-43.998 Y43.581 E139.08726
G1 X-47.629 Y43.799 E139.25664
G1 X-51.266 Y43.754 E139.42601
G1 X-54.891 Y43.446 E139.59541
G1 X-58.487 Y42.877 E139.76494
G1 X-62.027 Y42.047 E139.93425
G1 X-65.501 Y40.963 E140.1037
G1 X-68.887 Y39.63 E140.27315
G1 X-72.167 Y38.058 E140.44251
G1 X-75.325 Y36.25 E140.61196
G1 X-78.333 Y34.227 E140.78075
G1 X-81.207 Y31.974 E140.95079
G1 X-83.901 Y29.528 E141.12023
G1 X-86.401 Y26.904 E141.28899
G1 X-88.722 Y24.084 E141.45906
G1 X-90.824 Y21.114 E141.62849
G1 X-92.704 Y18.002 E141.79778
G1 X-94.355 Y14.759 E141.96724
G1 X-95.768 Y11.405 E142.13671
G1 X-96.933 Y7.959 E142.30609
G1 X-97.846 Y4.438 E142.47546
G1 X-98.501 Y0.858 E142.64493
G1 X-98.895 Y-2.759 E142.81435
G1 X-99.027 Y-6.392 E142.98363
G1 X-98.894 Y-10.029 E143.15309
G1 X-98.499 Y-13.645 E143.32247
G1 X-97.844 Y-17.225 E143.49194
G1 X-96.933 Y-20.732 E143.66066
G1 X-95.763 Y-24.192 E143.83073
G1 X-94.349 Y-27.544 E144.00014
G1 X-92.697 Y-30.786 E144.16957
G1 X-90.816 Y-33.9 E144.33897
G1 X-88.713 Y-36.868 E144.50835
G1 X-86.401 Y-39.677 E144.67775
G1 X-83.901 Y-42.301 E144.84651
G1 X-81.196 Y-44.755 E145.01658
G1 X-78.333 Y-46.999 E145.18596
G1 X-75.312 Y-49.031 E145.35549
G1 X-72.167 Y-50.831 E145.52423
G1 X-68.874 Y-52.409 E145.69426
G1 X-65.487 Y-53.741 E145.86373
G1 X-62.013 Y-54.823 E146.03316
G1 X-58.472 Y-55.652 E146.2025
G1 X-54.891 Y-56.219 E146.37132
G1 X-51.251 Y-56.528 E146.54143
G1 X-47.616 Y-56.572 E146.7107
G1 X-43.998 Y-56.354 E146.87947
G1 X-40.377 Y-55.87 E147.04958
G1 X-36.828 Y-55.132 E147.21837
G1 X-33.317 Y-54.13 E147.38839
G1 X-29.911 Y-52.887 E147.55722
G1 X-26.582 Y-51.388 E147.72722
G1 X-23.38 Y-49.658 E147.89669
G1 X-20.324 Y-47.71 E148.06544
G1 X-17.395 Y-45.529 E148.23548
G1 X-14.734 Y-43.229 E148.39926
G1 X71.121 Y-66.457 E152.54076
G1 X71.245 Y-66.45 E152.54654
G1 X71.342 Y-66.371 E152.55237
G1 X71.373 Y-66.264 E152.55755
G1 X71.373 Y-26.672 E154.40112
G1 X71.334 Y-26.553 E154.40695
G1 X71.173 Y-26.472 E154.41535
G1 X-2.829 Y-26.472 E157.86119
G1 X-1.64 Y-23.519 E158.00942
G1 X-.559 Y-20.181 E158.1728
G1 X0.284 Y-16.79 E158.3355
G1 X0.888 Y-13.348 E158.49823
G1 X1.252 Y-9.872 E158.66097
G1 X1.373 Y-6.38 E158.82367
G1 X1.251 Y-2.888 E158.98637
G1 X0.886 Y0.589 E159.14916
G1 F2400 E157.84916
G0 F3000 X-56.16 Y0.00
;TYPE:SUPPORT
