;FLAVOR:Marlin
;TIME:8299
;Filament used: 11.6032m
;Layer height: 0.32
;MINX:-73.676
;MINY:-41.039
;MINZ:0.32
;MAXX:79.924
;MAXY:32.561
;MAXZ:10.88
;Generated with Cura_SteamEngine 5.3.0
M82 ;absolute extrusion mode
;Start Gcode
G90 ;absolute positioning
M118 X25.00 Y25.00 Z20.00 T0
M140 S40 T0 ;Heat bed up to first layer temperature
M104 S200 T0 ;Set nozzle temperature to first layer temperature
M107 ;start with the fan off
G90
G28
M132 X Y Z A B
G1 Z50.000 F420
G161 X Y F3300
M7 T0
M6 T0
M651
M907 X100 Y100 Z40 A100 B20 ;Digital potentiometer value
M108 T0
;Purge line
G1 X-110.00 Y-60.00 F4800
G1 Z0.32 F420
G1 X-110.00 Y60.00 E17,4 F1200
;Purge line end
G92 E0
G92 E0
G1 F2400 E-1.3
;LAYER_COUNT:34
;LAYER:0
M107
G0 F3000 X-56.979 Y32.557 Z0.32
;TYPE:SKIRT
G1 F2400 E0
G1 F1500 X-58.836 Y32.443 E0.09901
G1 X-60.627 Y32.134 E0.19573
G1 X-62.436 Y31.613 E0.29591
G1 X-64.154 Y30.901 E0.39487
G1 X-65.748 Y30.024 E0.49169
G1 X-67.412 Y28.844 E0.60025
G1 X-68.7 Y27.692 E0.69221
G1 X-70.074 Y26.153 E0.802
G1 X-71.082 Y24.726 E0.89497
G1 X-72.056 Y22.958 E1.00239
G1 X-72.715 Y21.361 E1.09433
G1 X-73.275 Y19.396 E1.20306
G1 X-73.569 Y17.63 E1.29834
G1 X-73.676 Y15.773 E1.39732
G1 X-73.672 Y-24.342 E3.53209
G1 X-73.558 Y-26.199 E3.6311
G1 X-73.259 Y-27.944 E3.72532
G1 X-72.726 Y-29.798 E3.82797
G1 X-71.994 Y-31.556 E3.92931
G1 X-71.139 Y-33.108 E4.02361
G1 X-69.959 Y-34.774 E4.13225
G1 X-68.808 Y-36.061 E4.22414
G1 X-67.268 Y-37.436 E4.334
G1 X-65.841 Y-38.444 E4.42698
G1 X-64.072 Y-39.419 E4.53447
G1 X-62.434 Y-40.092 E4.62871
G1 X-60.513 Y-40.637 E4.73497
G1 X-58.743 Y-40.932 E4.83046
G1 X-56.887 Y-41.039 E4.9294
G1 X63.229 Y-41.035 E11.32151
G1 X65.085 Y-40.92 E11.42047
G1 X66.875 Y-40.611 E11.51714
G1 X68.684 Y-40.09 E11.61732
G1 X70.402 Y-39.378 E11.71629
G1 X72.036 Y-38.477 E11.81559
G1 X73.624 Y-37.35 E11.91921
G1 X74.947 Y-36.171 E12.01352
G1 X76.322 Y-34.631 E12.12338
G1 X77.33 Y-33.203 E12.2164
G1 X78.305 Y-31.434 E12.32389
G1 X78.947 Y-29.882 E12.41327
G1 X79.481 Y-28.057 E12.51446
G1 X79.806 Y-26.2 E12.61479
G1 X79.924 Y-24.251 E12.7187
G1 X79.92 Y15.864 E14.85346
G1 X79.806 Y17.722 E14.95253
G1 X79.507 Y19.467 E15.04674
G1 X78.948 Y21.404 E15.15403
G1 X78.304 Y22.958 E15.24355
G1 X77.388 Y24.631 E15.34505
G1 X76.236 Y26.261 E15.45127
G1 X74.96 Y27.68 E15.55282
G1 X73.516 Y28.959 E15.65547
G1 X72.089 Y29.967 E15.74845
G1 X70.482 Y30.861 E15.84631
G1 X68.596 Y31.644 E15.95498
G1 X66.893 Y32.131 E16.04924
G1 X64.95 Y32.458 E16.1541
G1 X63.135 Y32.561 E16.25084
G1 X-56.979 Y32.557 E22.64285
G0 F3000 X-56.955 Y32.158
G1 F1500 X-58.768 Y32.049 E22.73951
G1 X-60.559 Y31.74 E22.83622
G1 X-62.283 Y31.243 E22.93171
G1 X-64.001 Y30.531 E23.03067
G1 X-65.555 Y29.674 E23.12511
G1 X-67.145 Y28.546 E23.22886
G1 X-68.433 Y27.394 E23.32081
G1 X-69.747 Y25.922 E23.42582
G1 X-70.755 Y24.495 E23.51879
G1 X-71.686 Y22.805 E23.62147
G1 X-72.33 Y21.251 E23.71099
G1 X-72.88 Y19.33 E23.81733
G1 X-73.174 Y17.564 E23.9126
G1 X-73.276 Y15.773 E24.00806
G1 X-73.273 Y-24.318 E26.14156
G1 X-73.164 Y-26.131 E26.23821
G1 X-72.865 Y-27.876 E26.33243
G1 X-72.357 Y-29.644 E26.43032
G1 X-71.625 Y-31.402 E26.53166
G1 X-70.789 Y-32.915 E26.62365
G1 X-69.661 Y-34.507 E26.72748
G1 X-68.51 Y-35.794 E26.81936
G1 X-67.037 Y-37.109 E26.92444
G1 X-65.61 Y-38.117 E27.01742
G1 X-63.919 Y-39.049 E27.12017
G1 X-62.324 Y-39.707 E27.21199
G1 X-60.447 Y-40.242 E27.31585
G1 X-58.677 Y-40.537 E27.41134
G1 X-56.887 Y-40.639 E27.50676
G1 X63.205 Y-40.636 E33.8976
G1 X65.017 Y-40.526 E33.9942
G1 X66.807 Y-40.217 E34.09087
G1 X68.531 Y-39.72 E34.18635
G1 X70.249 Y-39.008 E34.28532
G1 X71.804 Y-38.151 E34.3798
G1 X73.392 Y-37.024 E34.48343
G1 X74.68 Y-35.873 E34.57535
G1 X75.995 Y-34.4 E34.68043
G1 X77.003 Y-32.972 E34.77345
G1 X77.935 Y-31.281 E34.8762
G1 X78.577 Y-29.729 E34.96558
G1 X79.097 Y-27.945 E35.06447
G1 X79.412 Y-26.132 E35.1624
G1 X79.524 Y-24.251 E35.26267
G1 X79.521 Y15.84 E37.39616
G1 X79.412 Y17.654 E37.49287
G1 X79.113 Y19.399 E37.58709
G1 X78.578 Y21.251 E37.68967
G1 X77.934 Y22.805 E37.77919
G1 X77.037 Y24.439 E37.87839
G1 X75.91 Y26.03 E37.98214
G1 X74.695 Y27.381 E38.07884
G1 X73.285 Y28.632 E38.17915
G1 X71.858 Y29.64 E38.27212
G1 X70.288 Y30.511 E38.36767
G1 X68.486 Y31.259 E38.4715
G1 X66.783 Y31.746 E38.56576
G1 X64.927 Y32.059 E38.66592
G1 X63.135 Y32.161 E38.76144
G1 X-56.955 Y32.158 E45.15217
G0 F3000 X-56.932 Y31.759
G1 F1500 X-58.7 Y31.655 E45.24642
G1 X-60.449 Y31.355 E45.34086
G1 X-62.13 Y30.873 E45.43392
G1 X-63.848 Y30.161 E45.53289
G1 X-65.361 Y29.324 E45.6249
G1 X-66.878 Y28.248 E45.72388
G1 X-68.166 Y27.096 E45.81583
G1 X-69.42 Y25.691 E45.91605
G1 X-70.428 Y24.264 E46.00903
G1 X-71.316 Y22.652 E46.10697
G1 X-71.96 Y21.098 E46.19648
G1 X-72.486 Y19.264 E46.29802
G1 X-72.775 Y17.541 E46.39099
G1 X-72.876 Y15.773 E46.48523
G1 X-72.874 Y-24.295 E48.6175
G1 X-72.77 Y-26.063 E48.71175
G1 X-72.471 Y-27.808 E48.80596
G1 X-71.988 Y-29.491 E48.89914
G1 X-71.275 Y-31.209 E48.99813
G1 X-70.439 Y-32.722 E49.09012
G1 X-69.363 Y-34.24 E49.18913
G1 X-68.212 Y-35.527 E49.28102
G1 X-66.806 Y-36.782 E49.38131
G1 X-65.379 Y-37.79 E49.47428
G1 X-63.766 Y-38.679 E49.5723
G1 X-62.214 Y-39.322 E49.6617
G1 X-60.381 Y-39.847 E49.76316
G1 X-58.611 Y-40.142 E49.85866
G1 X-56.887 Y-40.239 E49.95055
G1 X63.181 Y-40.237 E56.34011
G1 X64.949 Y-40.132 E56.43436
G1 X66.697 Y-39.832 E56.52874
G1 X68.378 Y-39.35 E56.6218
G1 X70.096 Y-38.638 E56.72077
G1 X71.61 Y-37.801 E56.81283
G1 X73.125 Y-36.726 E56.91169
G1 X74.413 Y-35.575 E57.00361
G1 X75.668 Y-34.169 E57.10391
G1 X76.676 Y-32.741 E57.19692
G1 X77.565 Y-31.128 E57.29494
G1 X78.207 Y-29.576 E57.38431
G1 X78.713 Y-27.833 E57.4809
G1 X79.018 Y-26.064 E57.57643
G1 X79.124 Y-24.251 E57.67307
G1 X79.122 Y15.817 E59.80534
G1 X79.018 Y17.586 E59.89964
G1 X78.719 Y19.331 E59.99386
G1 X78.208 Y21.098 E60.09175
G1 X77.564 Y22.652 E60.18126
G1 X76.687 Y24.246 E60.27808
G1 X75.612 Y25.763 E60.37703
G1 X74.429 Y27.082 E60.47131
G1 X73.054 Y28.305 E60.56924
G1 X71.627 Y29.313 E60.66222
G1 X70.094 Y30.161 E60.75545
G1 X68.376 Y30.874 E60.85443
G1 X66.673 Y31.361 E60.94869
G1 X64.904 Y31.66 E61.04417
G1 X63.135 Y31.761 E61.13846
G1 X-56.932 Y31.759 E67.52797
G0 F3000 X-56.909 Y31.36
G1 F1500 X-58.632 Y31.261 E67.61981
G1 X-60.381 Y30.961 E67.71425
G1 X-62.019 Y30.489 E67.80496
G1 X-63.654 Y29.811 E67.89916
G1 X-65.167 Y28.974 E67.99117
G1 X-66.611 Y27.95 E68.08538
G1 X-67.899 Y26.798 E68.17734
G1 X-69.093 Y25.46 E68.27277
G1 X-70.101 Y24.033 E68.36574
G1 X-70.946 Y22.499 E68.45894
G1 X-71.59 Y20.945 E68.54846
G1 X-72.092 Y19.197 E68.64524
G1 X-72.376 Y17.518 E68.73586
G1 X-72.476 Y15.773 E68.82888
G1 X-72.475 Y-24.272 E70.95992
G1 X-72.376 Y-25.995 E71.05176
G1 X-72.077 Y-27.74 E71.14598
G1 X-71.604 Y-29.38 E71.23681
G1 X-70.925 Y-31.016 E71.33107
G1 X-70.089 Y-32.529 E71.42306
G1 X-69.065 Y-33.973 E71.51727
G1 X-67.914 Y-35.26 E71.60915
G1 X-66.575 Y-36.455 E71.70466
G1 X-65.148 Y-37.463 E71.79763
G1 X-63.613 Y-38.309 E71.8909
G1 X-62.061 Y-38.952 E71.9803
G1 X-60.315 Y-39.453 E72.07697
G1 X-58.588 Y-39.743 E72.17016
G1 X-56.887 Y-39.839 E72.26082
G1 X63.158 Y-39.838 E78.64916
G1 X64.881 Y-39.738 E78.74101
G1 X66.629 Y-39.438 E78.83539
G1 X68.267 Y-38.966 E78.92611
G1 X69.902 Y-38.288 E79.0203
G1 X71.416 Y-37.451 E79.11236
G1 X72.858 Y-36.428 E79.20645
G1 X74.146 Y-35.277 E79.29837
G1 X75.341 Y-33.938 E79.39388
G1 X76.349 Y-32.51 E79.4869
G1 X77.195 Y-30.975 E79.58017
G1 X77.837 Y-29.423 E79.66955
G1 X78.329 Y-27.722 E79.76378
G1 X78.624 Y-25.997 E79.85691
G1 X78.724 Y-24.251 E79.94998
G1 X78.723 Y15.794 E82.08102
G1 X78.624 Y17.518 E82.17292
G1 X78.325 Y19.263 E82.26713
G1 X77.838 Y20.945 E82.36032
G1 X77.194 Y22.499 E82.44984
G1 X76.337 Y24.053 E82.54428
G1 X75.314 Y25.496 E82.63841
G1 X74.163 Y26.783 E82.73029
G1 X72.823 Y27.978 E82.82584
G1 X71.396 Y28.986 E82.91881
G1 X69.901 Y29.811 E83.00968
G1 X68.266 Y30.489 E83.10387
G1 X66.563 Y30.976 E83.19813
G1 X64.881 Y31.261 E83.28892
G1 X63.135 Y31.361 E83.38199
G1 X-56.909 Y31.36 E89.77027
G0 F3000 X-56.887 Y30.961
G1 F1500 X-58.565 Y30.867 E89.85971
G1 X-60.27 Y30.577 E89.95175
G1 X-61.908 Y30.105 E90.04246
G1 X-63.46 Y29.461 E90.13188
G1 X-64.973 Y28.624 E90.2239
G1 X-66.344 Y27.652 E90.31333
G1 X-67.632 Y26.5 E90.40529
G1 X-68.767 Y25.229 E90.49597
G1 X-69.751 Y23.84 E90.58656
G1 X-70.576 Y22.346 E90.67738
G1 X-71.22 Y20.792 E90.7669
G1 X-71.698 Y19.13 E90.85893
G1 X-71.982 Y17.451 E90.94955
G1 X-72.076 Y15.773 E91.03899
G1 X-72.076 Y-24.25 E93.16886
G1 X-71.982 Y-25.928 E93.2583
G1 X-71.693 Y-27.629 E93.35011
G1 X-71.22 Y-29.269 E93.44095
G1 X-70.575 Y-30.823 E93.53048
G1 X-69.739 Y-32.336 E93.62247
G1 X-68.767 Y-33.706 E93.71187
G1 X-67.616 Y-34.993 E93.80375
G1 X-66.344 Y-36.129 E93.8945
G1 X-64.954 Y-37.113 E93.98513
G1 X-63.46 Y-37.939 E94.07598
G1 X-61.908 Y-38.582 E94.16538
G1 X-60.248 Y-39.059 E94.25729
G1 X-58.565 Y-39.344 E94.34813
G1 X-56.887 Y-39.439 E94.43757
G1 X63.135 Y-39.439 E100.82469
G1 X64.814 Y-39.344 E100.91418
G1 X66.518 Y-39.054 E101.00617
G1 X68.156 Y-38.582 E101.09688
G1 X69.708 Y-37.938 E101.1863
G1 X71.222 Y-37.101 E101.27836
G1 X72.591 Y-36.13 E101.36768
G1 X73.879 Y-34.979 E101.4596
G1 X75.015 Y-33.707 E101.55036
G1 X75.999 Y-32.317 E101.64099
G1 X76.825 Y-30.822 E101.73188
G1 X77.467 Y-29.27 E101.82126
G1 X77.945 Y-27.611 E101.91314
G1 X78.23 Y-25.93 E102.00387
G1 X78.324 Y-24.251 E102.09336
G1 X78.324 Y15.772 E104.22324
G1 X78.23 Y17.451 E104.31273
G1 X77.941 Y19.152 E104.40454
G1 X77.468 Y20.792 E104.49538
G1 X76.824 Y22.346 E104.58489
G1 X75.987 Y23.859 E104.67691
G1 X75.016 Y25.229 E104.76627
G1 X73.865 Y26.516 E104.85815
G1 X72.592 Y27.652 E104.94895
G1 X71.203 Y28.636 E105.03954
G1 X69.708 Y29.461 E105.1304
G1 X68.156 Y30.105 E105.21982
G1 X66.496 Y30.582 E105.31174
G1 X64.814 Y30.867 E105.40252
G1 X63.135 Y30.961 E105.49201
G1 X-56.887 Y30.961 E111.87913
G1 F2400 E110.57913
;MESH:Base superior(suporte).stl
G0 F3000 X-9.129 Y-1.706
G0 X-8.335 Y-2.544
G0 X-7.339 Y-4.279
G0 X-7.598 Y-4.248
;TYPE:WALL-INNER
G1 F2400 E111.87913
G1 F1357.5 X-7.736 Y-3.447 E111.92692
G1 F1438.8 X-8.007 Y-2.733 E111.96929
G1 F1500 X-8.459 Y-2.088 E112.01121
G1 X-9.021 Y-1.584 E112.05138
G1 X-9.725 Y-1.213 E112.09373
G1 X-10.495 Y-1.022 E112.13595
G1 X-11.255 Y-1.024 E112.17639
G1 X-12.022 Y-1.21 E112.21839
G1 X-12.717 Y-1.574 E112.26014
G1 X-13.302 Y-2.093 E112.30176
G1 X-13.747 Y-2.74 E112.34355
G1 X-14.019 Y-3.457 E112.38436
G1 X-14.115 Y-4.231 E112.42586
G1 X-14.019 Y-5.022 E112.46826
G1 X-13.747 Y-5.737 E112.50897
G1 X-13.3 Y-6.387 E112.55095
G1 X-12.717 Y-6.903 E112.59239
G1 X-12.02 Y-7.268 E112.63426
G1 X-11.269 Y-7.455 E112.67544
G1 X-10.478 Y-7.455 E112.71754
G1 X-9.724 Y-7.264 E112.75893
G1 X-9.022 Y-6.894 E112.80116
G1 X-8.452 Y-6.388 E112.84172
G1 X-8.007 Y-5.743 E112.88342
G1 F1438.8 X-7.737 Y-5.031 E112.92566
G1 F1354.4 X-7.598 Y-4.248 E112.97253
G0 F3000 X-7.154 Y-4.248
G1 F1354.4 X-7.015 Y-5.031 E113.0194
G1 F1438.8 X-6.745 Y-5.743 E113.06165
G1 F1500 X-6.3 Y-6.388 E113.10335
G1 X-5.729 Y-6.894 E113.14395
G1 X-5.026 Y-7.264 E113.18623
G1 X-4.268 Y-7.455 E113.22782
G1 X-3.478 Y-7.455 E113.26986
G1 X-2.717 Y-7.258 E113.3117
G1 X-2.037 Y-6.905 E113.35247
G1 X-1.449 Y-6.383 E113.39431
G1 X-1.005 Y-5.73 E113.43633
G1 X-.732 Y-5.017 E113.47696
G1 X-.637 Y-4.232 E113.51904
G1 X-.733 Y-3.468 E113.56002
G1 X-1.006 Y-2.738 E113.6015
G1 X-1.452 Y-2.09 E113.64336
G1 X-2.037 Y-1.572 E113.68494
G1 X-2.717 Y-1.219 E113.72571
G1 X-3.478 Y-1.022 E113.76755
G1 X-4.274 Y-1.022 E113.80991
G1 X-5.027 Y-1.213 E113.85125
G1 X-5.731 Y-1.584 E113.89359
G1 X-6.293 Y-2.088 E113.93377
G1 X-6.746 Y-2.734 E113.97575
G1 F1438.8 X-7.016 Y-3.452 E114.01831
G1 F1357.5 X-7.154 Y-4.248 E114.06582
G0 F3000 X-7.412 Y-4.28
G0 X-7.254 Y-3.406
G0 X-6.958 Y-2.622
G0 X-6.48 Y-1.932
G0 X-5.852 Y-1.375
G0 X63.095 Y29.862
G0 X63.104 Y30.161
G1 F1500 X64.74 Y30.069 E114.15302
G1 X66.33 Y29.799 E114.23884
G1 X67.875 Y29.353 E114.32442
G1 X69.376 Y28.731 E114.41088
G1 X70.781 Y27.955 E114.4963
G1 X72.099 Y27.019 E114.58232
G1 X73.31 Y25.939 E114.66867
G1 X74.383 Y24.735 E114.7545
G1 X75.318 Y23.418 E114.84045
G1 X76.094 Y22.014 E114.92582
G1 X76.715 Y20.513 E115.01226
G1 X77.164 Y18.961 E115.09824
G1 X77.432 Y17.377 E115.18373
G1 X77.524 Y15.741 E115.27093
G1 X77.524 Y-24.225 E117.39777
G1 X77.432 Y-25.854 E117.4846
G1 X77.162 Y-27.445 E117.57048
G1 X76.715 Y-28.99 E117.65607
G1 X76.094 Y-30.491 E117.74251
G1 X75.318 Y-31.895 E117.82788
G1 X74.384 Y-33.212 E117.9138
G1 X73.302 Y-34.423 E118.00022
G1 X72.097 Y-35.497 E118.08612
G1 X70.781 Y-36.432 E118.17203
G1 X69.376 Y-37.208 E118.25745
G1 X67.875 Y-37.83 E118.34391
G1 X66.33 Y-38.276 E118.42949
G1 X64.74 Y-38.546 E118.51531
G1 X63.104 Y-38.639 E118.60251
G1 X-56.856 Y-38.639 E124.98633
G1 X-58.491 Y-38.546 E125.07348
G1 X-60.082 Y-38.276 E125.15936
G1 X-61.627 Y-37.83 E125.24493
G1 X-63.128 Y-37.208 E125.3314
G1 X-64.532 Y-36.432 E125.41677
G1 X-65.849 Y-35.498 E125.50269
G1 X-67.06 Y-34.416 E125.58911
G1 X-68.135 Y-33.212 E125.675
G1 X-69.07 Y-31.895 E125.76096
G1 X-69.845 Y-30.491 E125.8463
G1 X-70.467 Y-28.99 E125.93276
G1 X-70.916 Y-27.438 E126.01874
G1 X-71.184 Y-25.854 E126.10423
G1 X-71.276 Y-24.219 E126.19138
G1 X-71.275 Y15.747 E128.31822
G1 X-71.184 Y17.377 E128.4051
G1 X-70.916 Y18.961 E128.49059
G1 X-70.467 Y20.513 E128.57657
G1 X-69.845 Y22.014 E128.66303
G1 X-69.07 Y23.418 E128.74837
G1 X-68.135 Y24.735 E128.83433
G1 X-67.06 Y25.939 E128.92022
G1 X-65.851 Y27.019 E129.00649
G1 X-64.532 Y27.955 E129.09256
G1 X-63.128 Y28.731 E129.17793
G1 X-61.627 Y29.353 E129.26439
G1 X-60.082 Y29.799 E129.34997
G1 X-58.491 Y30.069 E129.43585
G1 X-56.856 Y30.161 E129.52299
G1 X63.104 Y30.161 E135.90681
G0 F3000 X63.115 Y30.561
;TYPE:WALL-OUTER
G1 F1500 X64.785 Y30.467 E135.99582
G1 X66.419 Y30.189 E136.08403
G1 X68.007 Y29.731 E136.17198
G1 X69.55 Y29.092 E136.26086
G1 X70.994 Y28.294 E136.34865
G1 X72.349 Y27.332 E136.43709
G1 X73.593 Y26.222 E136.52581
G1 X74.697 Y24.985 E136.61404
G1 X75.657 Y23.631 E136.70237
G1 X76.455 Y22.188 E136.79012
G1 X77.093 Y20.645 E136.87898
G1 X77.554 Y19.05 E136.96733
G1 X77.83 Y17.422 E137.0552
G1 X77.924 Y15.752 E137.14421
G1 X77.924 Y-24.236 E139.27222
G1 X77.83 Y-25.899 E139.36086
G1 X77.552 Y-27.535 E139.44917
G1 X77.093 Y-29.122 E139.53709
G1 X76.455 Y-30.665 E139.62594
G1 X75.657 Y-32.108 E139.7137
G1 X74.697 Y-33.462 E139.80202
G1 X73.585 Y-34.707 E139.89086
G1 X72.347 Y-35.811 E139.97913
G1 X70.994 Y-36.771 E140.06741
G1 X69.55 Y-37.569 E140.15521
G1 X68.007 Y-38.208 E140.24409
G1 X66.419 Y-38.666 E140.33204
G1 X64.785 Y-38.944 E140.42024
G1 X63.115 Y-39.039 E140.50926
G1 X-56.867 Y-39.039 E146.89425
G1 X-58.536 Y-38.944 E146.98321
G1 X-60.171 Y-38.666 E147.07147
G1 X-61.759 Y-38.208 E147.15942
G1 X-63.302 Y-37.569 E147.24829
G1 X-64.745 Y-36.771 E147.33604
G1 X-66.099 Y-35.811 E147.42437
G1 X-67.344 Y-34.699 E147.51321
G1 X-68.448 Y-33.462 E147.60144
G1 X-69.409 Y-32.108 E147.6898
G1 X-70.206 Y-30.665 E147.77752
G1 X-70.845 Y-29.122 E147.8664
G1 X-71.306 Y-27.527 E147.95475
G1 X-71.582 Y-25.899 E148.04263
G1 X-71.676 Y-24.23 E148.13158
G1 X-71.675 Y15.758 E150.25959
G1 X-71.582 Y17.422 E150.34828
G1 X-71.306 Y19.05 E150.43616
G1 X-70.845 Y20.645 E150.52451
G1 X-70.206 Y22.188 E150.61339
G1 X-69.409 Y23.631 E150.70111
G1 X-68.448 Y24.985 E150.78947
G1 X-67.344 Y26.222 E150.8777
G1 X-66.101 Y27.332 E150.96639
G1 X-64.745 Y28.294 E151.05486
G1 X-63.302 Y29.092 E151.14261
G1 X-61.759 Y29.731 E151.23149
G1 X-60.171 Y30.189 E151.31944
G1 X-58.536 Y30.467 E151.4077
G1 X-56.867 Y30.561 E151.49666
G1 X63.115 Y30.561 E157.88165
G0 F3000 X63.314 Y30.55
G0 X63.276 Y29.851
G0 X-3.538 Y-.722
G0 X-3.538 Y-1.422
G1 F1500 X-4.215 Y-1.422 E157.91767
G1 X-4.876 Y-1.587 E157.95393
G1 X-5.484 Y-1.904 E157.99042
G1 X-5.997 Y-2.357 E158.02684
G1 X-6.397 Y-2.943 E158.06459
G1 X-6.633 Y-3.584 E158.10094
G1 X-6.711 Y-4.221 E158.1351
G1 X-6.63 Y-4.917 E158.17238
G1 X-6.389 Y-5.554 E158.20863
G1 X-5.999 Y-6.119 E158.24516
G1 X-5.484 Y-6.573 E158.2817
G1 X-4.89 Y-6.884 E158.31738
