;FLAVOR:Marlin
;TIME:12259
;Filament used: 17.6401m
;Layer height: 0.32
;MINX:-85.056
;MINY:-66.491
;MINZ:0.32
;MAXX:88.537
;MAXY:55.649
;MAXZ:14.08
;Generated with Cura_SteamEngine 5.3.0
M82 ;absolute extrusion mode
;Start Gcode
G90 ;absolute positioning
M118 X25.00 Y25.00 Z20.00 T0
M140 S40 T0 ;Heat bed up to first layer temperature
M104 S200 T0 ;Set nozzle temperature to first layer temperature
M107 ;start with the fan off
G90
G28
M132 X Y Z A B
G1 Z50.000 F420
G161 X Y F3300
M7 T0
M6 T0
M651
M907 X100 Y100 Z40 A100 B20 ;Digital potentiometer value
M108 T0
;Purge line
G1 X-110.00 Y-60.00 F4800
G1 Z0.32 F420
G1 X-110.00 Y60.00 E17,4 F1200
;Purge line end
G92 E0
G92 E0
G1 F2400 E-1.3
;LAYER_COUNT:44
;LAYER:0
M107
G0 F3000 X18.049 Y1.721 Z0.32
;TYPE:SKIRT
G1 F2400 E0
G1 F1500 X17.427 Y5.272 E0.19185
G1 X16.532 Y8.879 E0.38962
G1 X15.455 Y12.203 E0.57556
G1 X15.11 Y13.064 E0.62492
G1 X84.978 Y13.078 E4.34303
G1 X85.728 Y13.178 E4.3833
G1 X86.653 Y13.561 E4.43658
G1 X87.447 Y14.169 E4.4898
G1 X88.051 Y14.96 E4.54276
G1 X88.429 Y15.876 E4.59549
G1 X88.532 Y16.655 E4.63731
G1 X88.537 Y51.994 E6.51792
G1 X88.463 Y52.678 E6.55453
G1 X88.177 Y53.498 E6.60074
G1 X87.664 Y54.294 E6.65114
G1 X87.073 Y54.851 E6.69436
G1 X86.353 Y55.298 E6.73946
G1 X85.481 Y55.584 E6.78829
G1 X84.576 Y55.649 E6.83658
G1 X83.955 Y55.557 E6.86999
G1 X1.244 Y33.189 E11.42967
G1 X-.775 Y34.933 E11.57165
G1 X-3.798 Y37.186 E11.77228
G1 X-7.049 Y39.259 E11.97747
G1 X-10.368 Y41.048 E12.17812
G1 X-13.792 Y42.583 E12.3778
G1 X-17.225 Y43.837 E12.5723
G1 X-20.929 Y44.891 E12.77724
G1 X-24.537 Y45.641 E12.97335
G1 X-28.273 Y46.138 E13.17391
G1 X-32.079 Y46.365 E13.37681
G1 X-35.831 Y46.315 E13.5765
G1 X-39.456 Y46.008 E13.7701
G1 X-43.166 Y45.422 E13.96998
G1 X-46.932 Y44.54 E14.17581
G1 X-50.406 Y43.457 E14.36946
G1 X-54.008 Y42.039 E14.57546
G1 X-57.288 Y40.467 E14.76903
G1 X-60.574 Y38.589 E14.97044
G1 X-63.75 Y36.452 E15.17415
G1 X-66.624 Y34.199 E15.36849
G1 X-69.49 Y31.597 E15.57449
G1 X-71.99 Y28.973 E15.76736
G1 X-74.459 Y25.974 E15.97408
G1 X-76.561 Y23.003 E16.16775
G1 X-78.529 Y19.745 E16.37031
G1 X-80.26 Y16.344 E16.57339
G1 X-81.673 Y12.991 E16.76702
G1 X-82.879 Y9.437 E16.96674
G1 X-83.823 Y5.803 E17.16655
G1 X-84.522 Y1.996 E17.37253
G1 X-84.917 Y-1.622 E17.56621
G1 X-85.056 Y-5.487 E17.77202
G1 X-84.916 Y-9.239 E17.97183
G1 X-84.52 Y-12.856 E18.16546
G1 X-83.821 Y-16.662 E18.37139
G1 X-82.879 Y-20.279 E18.5703
G1 X-81.668 Y-23.847 E18.77081
G1 X-80.254 Y-27.199 E18.96441
G1 X-78.536 Y-30.574 E19.16595
G1 X-76.613 Y-33.762 E19.36408
G1 X-74.378 Y-36.919 E19.56992
G1 X-71.99 Y-39.815 E19.76967
G1 X-69.49 Y-42.439 E19.96254
G1 X-66.613 Y-45.05 E20.16929
G1 X-63.75 Y-47.294 E20.36287
G1 X-60.561 Y-49.439 E20.5674
G1 X-57.288 Y-51.309 E20.768
G1 X-53.995 Y-52.887 E20.96232
G1 X-50.392 Y-54.304 E21.16836
G1 X-46.89 Y-55.394 E21.36354
G1 X-43.181 Y-56.261 E21.56624
G1 X-39.456 Y-56.85 E21.76693
G1 X-35.816 Y-57.158 E21.96133
G1 X-32.065 Y-57.207 E22.16096
G1 X-28.302 Y-56.982 E22.36157
G1 X-24.479 Y-56.473 E22.56681
G1 X-20.929 Y-55.734 E22.75978
G1 X-17.279 Y-54.696 E22.96172
G1 X-13.684 Y-53.381 E23.16543
G1 X-10.355 Y-51.883 E23.3597
G1 X-7.049 Y-50.101 E23.55956
G1 X-3.798 Y-48.028 E23.76474
G1 X-.776 Y-45.776 E23.96531
G1 X1.244 Y-44.031 E24.10736
G1 X83.955 Y-66.399 E28.66704
G1 X84.576 Y-66.491 E28.70045
G1 X85.481 Y-66.426 E28.74873
G1 X86.353 Y-66.14 E28.79757
G1 X87.073 Y-65.693 E28.84267
G1 X87.657 Y-65.142 E28.8854
G1 X88.144 Y-64.405 E28.93241
G1 X88.46 Y-63.558 E28.98052
G1 X88.537 Y-62.838 E29.01905
G1 X88.532 Y-27.5 E30.8996
G1 X88.429 Y-26.715 E30.94174
G1 X88.054 Y-25.809 E30.99392
G1 X87.443 Y-25.011 E31.0474
G1 X86.647 Y-24.401 E31.10077
G1 X85.728 Y-24.02 E31.15371
G1 X84.948 Y-23.918 E31.19558
G1 X15.109 Y-23.906 E34.91214
G1 X15.459 Y-23.033 E34.9622
G1 X16.536 Y-19.708 E35.14819
G1 X17.43 Y-16.101 E35.34595
G1 X18.051 Y-12.549 E35.53784
G1 X18.423 Y-8.962 E35.72975
G1 X18.544 Y-5.359 E35.9216
G1 X18.422 Y-1.867 E36.10754
G1 X18.049 Y1.721 E36.29951
G0 F3000 X17.651 Y1.68
G1 F1500 X17.033 Y5.203 E36.48985
G1 X16.151 Y8.756 E36.68467
G1 X15.074 Y12.08 E36.87061
G1 X14.518 Y13.464 E36.94999
G1 X84.925 Y13.475 E40.69678
G1 X85.624 Y13.568 E40.73431
G1 X86.452 Y13.911 E40.782
G1 X87.161 Y14.454 E40.82952
G1 X87.701 Y15.161 E40.87687
G1 X88.039 Y15.98 E40.92402
G1 X88.135 Y16.707 E40.96304
G1 X88.139 Y51.951 E42.83859
G1 X88.07 Y52.589 E42.87274
G1 X87.814 Y53.323 E42.91411
G1 X87.354 Y54.037 E42.95931
G1 X86.83 Y54.531 E42.99763
G1 X86.181 Y54.934 E43.03829
G1 X85.405 Y55.188 E43.08174
G1 X84.593 Y55.247 E43.12507
G1 X84.014 Y55.161 E43.15622
G1 X1.142 Y32.747 E47.72481
G1 X-1.037 Y34.63 E47.87806
G1 X-4.037 Y36.865 E48.07715
G1 X-7.239 Y38.907 E48.27925
G1 X-10.532 Y40.683 E48.47835
G1 X-13.929 Y42.207 E48.67648
G1 X-17.362 Y43.461 E48.87098
G1 X-21.011 Y44.499 E49.07287
G1 X-24.59 Y45.244 E49.26741
G1 X-28.326 Y45.741 E49.46798
G1 X-32.074 Y45.965 E49.66779
G1 X-35.797 Y45.916 E49.86593
G1 X-39.422 Y45.609 E50.05953
G1 X-43.104 Y45.027 E50.25791
G1 X-46.813 Y44.158 E50.46063
G1 X-50.287 Y43.075 E50.65428
G1 X-53.835 Y41.678 E50.8572
G1 X-57.115 Y40.106 E51.05076
G1 X-60.351 Y38.257 E51.2491
G1 X-63.503 Y36.137 E51.45124
G1 X-66.377 Y33.884 E51.64558
G1 X-69.2 Y31.321 E51.84849
G1 X-71.7 Y28.697 E52.04136
G1 X-74.132 Y25.743 E52.24498
G1 X-76.234 Y22.772 E52.43866
G1 X-78.173 Y19.563 E52.63818
G1 X-79.891 Y16.189 E52.83967
G1 X-81.304 Y12.836 E53.0333
G1 X-82.5 Y9.309 E53.23149
G1 X-83.436 Y5.703 E53.42975
G1 X-84.124 Y1.953 E53.63264
G1 X-84.519 Y-1.665 E53.82632
G1 X-84.656 Y-5.472 E54.02905
G1 X-84.518 Y-9.195 E54.22731
G1 X-84.122 Y-12.812 E54.42094
G1 X-83.434 Y-16.561 E54.62378
G1 X-82.5 Y-20.151 E54.82119
G1 X-81.299 Y-23.692 E55.02017
G1 X-79.885 Y-27.044 E55.21377
G1 X-78.18 Y-30.392 E55.41371
G1 X-76.271 Y-33.555 E55.61031
G1 X-74.069 Y-36.665 E55.8131
G1 X-71.7 Y-39.539 E56.01131
G1 X-69.2 Y-42.163 E56.20418
G1 X-66.366 Y-44.735 E56.40784
G1 X-63.503 Y-46.979 E56.60142
G1 X-60.362 Y-49.092 E56.80288
G1 X-57.115 Y-50.948 E57.00191
G1 X-53.822 Y-52.526 E57.19623
G1 X-50.273 Y-53.922 E57.39918
G1 X-46.799 Y-55.004 E57.59281
G1 X-43.09 Y-55.871 E57.79551
G1 X-39.422 Y-56.451 E57.99313
G1 X-35.782 Y-56.759 E58.18753
G1 X-32.06 Y-56.807 E58.38562
G1 X-28.326 Y-56.583 E58.58469
G1 X-24.561 Y-56.081 E58.78682
G1 X-21.011 Y-55.342 E58.97979
G1 X-17.389 Y-54.311 E59.18019
G1 X-13.848 Y-53.016 E59.38084
G1 X-10.519 Y-51.518 E59.5751
G1 X-7.239 Y-49.749 E59.77342
G1 X-4.037 Y-47.707 E59.97552
G1 X-1.038 Y-45.473 E60.17453
G1 X1.142 Y-43.589 E60.32786
G1 X84.014 Y-66.003 E64.89645
G1 X84.593 Y-66.089 E64.9276
G1 X85.405 Y-66.03 E64.97093
G1 X86.181 Y-65.776 E65.01438
G1 X86.827 Y-65.375 E65.05484
G1 X87.35 Y-64.881 E65.09313
G1 X87.784 Y-64.224 E65.13503
G1 X88.067 Y-63.465 E65.17814
G1 X88.139 Y-62.795 E65.214
G1 X88.135 Y-27.552 E67.0895
G1 X88.039 Y-26.819 E67.12884
G1 X87.704 Y-26.01 E67.17543
G1 X87.156 Y-25.294 E67.22341
G1 X86.449 Y-24.752 E67.27082
G1 X85.624 Y-24.41 E67.31835
G1 X84.896 Y-24.315 E67.35742
G1 X14.517 Y-24.306 E71.10272
G1 X15.078 Y-22.91 E71.18279
G1 X16.155 Y-19.585 E71.36878
G1 X17.036 Y-16.032 E71.56358
G1 X17.653 Y-12.508 E71.75397
G1 X18.023 Y-8.948 E71.94444
G1 X18.144 Y-5.373 E72.1348
G1 X18.022 Y-1.881 E72.32074
G1 X17.651 Y1.68 E72.51127
G0 F3000 X17.253 Y1.638
G1 F1500 X16.639 Y5.134 E72.70016
G1 X15.77 Y8.633 E72.89202
G1 X14.693 Y11.957 E73.07797
G1 X13.926 Y13.864 E73.18735
G1 X84.873 Y13.872 E76.96288
G1 X85.523 Y13.958 E76.99777
G1 X86.251 Y14.26 E77.03972
G1 X86.873 Y14.737 E77.08143
G1 X87.351 Y15.362 E77.1233
G1 X87.649 Y16.084 E77.16487
G1 X87.738 Y16.759 E77.2011
G1 X87.741 Y51.908 E79.0716
G1 X87.677 Y52.5 E79.10328
G1 X87.451 Y53.148 E79.13981
G1 X87.045 Y53.778 E79.17969
G1 X86.584 Y54.213 E79.21342
G1 X86.01 Y54.569 E79.24937
G1 X85.327 Y54.793 E79.28762
G1 X84.61 Y54.845 E79.32587
G1 X84.073 Y54.765 E79.35477
G1 X1.04 Y32.305 E83.93227
G1 X-1.299 Y34.327 E84.0968
G1 X-4.276 Y36.544 E84.29433
G1 X-7.429 Y38.555 E84.49335
G1 X-10.696 Y40.318 E84.6909
G1 X-14.066 Y41.831 E84.88749
G1 X-17.499 Y43.085 E85.08198
G1 X-21.093 Y44.107 E85.28083
G1 X-24.643 Y44.847 E85.4738
G1 X-28.379 Y45.344 E85.67437
G1 X-32.069 Y45.565 E85.87109
G1 X-35.763 Y45.517 E86.06769
G1 X-39.388 Y45.21 E86.26129
G1 X-43.042 Y44.632 E86.45816
G1 X-46.694 Y43.776 E86.65777
G1 X-50.168 Y42.693 E86.85142
G1 X-53.662 Y41.317 E87.05125
G1 X-56.942 Y39.745 E87.24482
G1 X-60.152 Y37.91 E87.44158
G1 X-63.256 Y35.822 E87.64066
G1 X-66.13 Y33.569 E87.835
G1 X-68.91 Y31.045 E88.03482
G1 X-71.41 Y28.421 E88.22769
G1 X-73.805 Y25.512 E88.42821
G1 X-75.907 Y22.541 E88.62188
G1 X-77.831 Y19.356 E88.8199
G1 X-79.522 Y16.034 E89.01827
G1 X-80.935 Y12.681 E89.2119
G1 X-82.121 Y9.181 E89.40856
G1 X-83.049 Y5.603 E89.60527
G1 X-83.726 Y1.91 E89.80507
G1 X-84.121 Y-1.708 E89.99875
G1 X-84.256 Y-5.457 E90.19839
G1 X-84.12 Y-9.151 E90.3951
G1 X-83.724 Y-12.768 E90.58874
G1 X-83.047 Y-16.46 E90.78849
G1 X-82.121 Y-20.023 E90.98439
G1 X-80.93 Y-23.537 E91.18185
G1 X-79.516 Y-26.889 E91.37545
G1 X-77.838 Y-30.185 E91.57227
G1 X-75.929 Y-33.348 E91.76887
G1 X-73.76 Y-36.411 E91.96861
G1 X-71.41 Y-39.263 E92.16526
G1 X-68.91 Y-41.887 E92.35813
G1 X-66.119 Y-44.42 E92.55871
G1 X-63.256 Y-46.664 E92.75229
G1 X-60.139 Y-48.76 E92.95218
G1 X-56.942 Y-50.587 E93.14813
G1 X-53.649 Y-52.165 E93.34246
G1 X-50.154 Y-53.54 E93.54232
G1 X-46.68 Y-54.622 E93.73596
G1 X-43.027 Y-55.476 E93.9356
G1 X-39.388 Y-56.052 E94.13166
G1 X-35.748 Y-56.36 E94.32606
G1 X-32.055 Y-56.407 E94.5226
G1 X-28.379 Y-56.186 E94.71858
G1 X-24.643 Y-55.689 E94.91915
G1 X-21.093 Y-54.95 E95.11211
G1 X-17.526 Y-53.935 E95.30947
G1 X-14.012 Y-52.651 E95.50857
G1 X-10.683 Y-51.153 E95.70283
G1 X-7.429 Y-49.397 E95.8996
G1 X-4.276 Y-47.386 E96.09862
G1 X-1.3 Y-45.17 E96.29607
G1 X1.04 Y-43.147 E96.46068
G1 X84.073 Y-65.607 E101.03818
G1 X84.61 Y-65.687 E101.06708
G1 X85.327 Y-65.635 E101.10533
G1 X86.01 Y-65.411 E101.14358
G1 X86.581 Y-65.057 E101.17934
G1 X87.043 Y-64.62 E101.21318
G1 X87.424 Y-64.043 E101.24997
G1 X87.674 Y-63.372 E101.28808
G1 X87.741 Y-62.752 E101.32127
G1 X87.738 Y-27.604 E103.19171
G1 X87.649 Y-26.923 E103.22826
G1 X87.353 Y-26.208 E103.26944
G1 X86.871 Y-25.579 E103.31161
G1 X86.248 Y-25.101 E103.3534
G1 X85.523 Y-24.8 E103.39517
G1 X84.845 Y-24.712 E103.43156
G1 X13.925 Y-24.706 E107.20565
G1 X14.697 Y-22.787 E107.31573
G1 X15.774 Y-19.462 E107.50172
G1 X16.642 Y-15.963 E107.69357
G1 X17.255 Y-12.467 E107.88245
G1 X17.623 Y-8.934 E108.07148
G1 X17.744 Y-5.387 E108.26035
G1 X17.622 Y-1.895 E108.44629
G1 X17.253 Y1.638 E108.63533
G0 F3000 X16.855 Y1.596
G1 F1500 X16.245 Y5.065 E108.82277
G1 X15.389 Y8.51 E109.01167
G1 X14.312 Y11.834 E109.19762
G1 X13.334 Y14.264 E109.33701
G1 X84.821 Y14.269 E113.14128
G1 X85.42 Y14.348 E113.17343
G1 X86.048 Y14.609 E113.20962
G1 X86.587 Y15.022 E113.24576
G1 X87.001 Y15.563 E113.28201
G1 X87.259 Y16.188 E113.31799
G1 X87.341 Y16.811 E113.35143
G1 X87.343 Y51.865 E115.21688
G1 X87.284 Y52.411 E115.2461
G1 X87.088 Y52.973 E115.27777
G1 X86.736 Y53.519 E115.31235
G1 X86.338 Y53.895 E115.34148
G1 X85.839 Y54.204 E115.37272
G1 X85.249 Y54.398 E115.40577
G1 X84.627 Y54.443 E115.43895
G1 X84.132 Y54.369 E115.46559
G1 X0.938 Y31.863 E120.052
G1 X-1.561 Y34.024 E120.22781
G1 X-4.515 Y36.223 E120.42379
G1 X-7.619 Y38.203 E120.61972
G1 X-10.86 Y39.953 E120.81573
G1 X-14.203 Y41.455 E121.01076
G1 X-17.609 Y42.7 E121.20375
G1 X-21.175 Y43.715 E121.40105
G1 X-24.725 Y44.455 E121.59403
G1 X-28.403 Y44.945 E121.79149
G1 X-32.064 Y45.165 E121.98667
G1 X-35.729 Y45.118 E122.18172
G1 X-39.354 Y44.811 E122.37532
G1 X-42.979 Y44.237 E122.57063
G1 X-46.575 Y43.394 E122.76718
G1 X-50.049 Y42.311 E122.96083
G1 X-53.489 Y40.956 E123.15759
G1 X-56.769 Y39.384 E123.35115
G1 X-59.953 Y37.563 E123.54634
G1 X-63.009 Y35.507 E123.74235
G1 X-65.883 Y33.254 E123.93669
G1 X-68.62 Y30.769 E124.13342
G1 X-71.12 Y28.145 E124.32629
G1 X-73.478 Y25.281 E124.52371
G1 X-75.58 Y22.31 E124.71738
G1 X-77.475 Y19.174 E124.91237
G1 X-79.153 Y15.879 E125.10915
G1 X-80.566 Y12.526 E125.30278
G1 X-81.742 Y9.053 E125.49791
G1 X-82.662 Y5.503 E125.69307
G1 X-83.328 Y1.867 E125.88978
G1 X-83.723 Y-1.751 E126.08346
G1 X-83.856 Y-5.442 E126.28001
G1 X-83.722 Y-9.107 E126.47518
G1 X-83.326 Y-12.724 E126.66881
G1 X-82.66 Y-16.359 E126.86547
G1 X-81.742 Y-19.895 E127.05988
G1 X-80.561 Y-23.382 E127.2558
G1 X-79.147 Y-26.734 E127.4494
G1 X-77.482 Y-30.003 E127.64463
G1 X-75.587 Y-33.141 E127.83971
G1 X-73.451 Y-36.157 E128.03639
G1 X-71.12 Y-38.987 E128.2315
G1 X-68.62 Y-41.611 E128.42437
G1 X-65.872 Y-44.105 E128.62185
G1 X-63.009 Y-46.349 E128.81543
G1 X-59.94 Y-48.413 E129.01225
G1 X-56.769 Y-50.226 E129.20664
G1 X-53.476 Y-51.804 E129.40096
G1 X-50.035 Y-53.158 E129.59774
G1 X-46.561 Y-54.24 E129.79137
G1 X-42.964 Y-55.081 E129.98796
G1 X-39.354 Y-55.653 E130.18246
G1 X-35.714 Y-55.961 E130.37686
G1 X-32.05 Y-56.007 E130.57186
G1 X-28.403 Y-55.787 E130.76629
G1 X-24.725 Y-55.297 E130.96375
G1 X-21.175 Y-54.558 E131.15672
G1 X-17.636 Y-53.55 E131.35254
G1 X-14.176 Y-52.286 E131.54857
G1 X-10.847 Y-50.788 E131.74284
G1 X-7.619 Y-49.045 E131.93806
G1 X-4.515 Y-47.065 E132.13399
G1 X-1.562 Y-44.867 E132.32989
G1 X0.938 Y-42.705 E132.50578
G1 X84.132 Y-65.211 E137.09219
G1 X84.627 Y-65.285 E137.11883
G1 X85.249 Y-65.24 E137.15201
G1 X85.839 Y-65.046 E137.18507
G1 X86.338 Y-64.737 E137.2163
G1 X86.734 Y-64.362 E137.24532
G1 X87.064 Y-63.862 E137.2772
G1 X87.281 Y-63.279 E137.31031
G1 X87.343 Y-62.709 E137.34082
G1 X87.341 Y-27.656 E139.20621
G1 X87.259 Y-27.027 E139.23997
G1 X87.003 Y-26.409 E139.27556
G1 X86.584 Y-25.862 E139.31223
G1 X86.048 Y-25.451 E139.34817
G1 X85.42 Y-25.19 E139.38437
G1 X84.794 Y-25.109 E139.41796
G1 X13.333 Y-25.106 E143.22084
G1 X14.316 Y-22.664 E143.36093
G1 X15.393 Y-19.339 E143.54692
G1 X16.248 Y-15.894 E143.73582
G1 X16.857 Y-12.425 E143.92325
G1 X17.223 Y-8.92 E144.11078
G1 X17.344 Y-5.401 E144.29816
G1 X17.222 Y-1.909 E144.48411
G1 X16.855 Y1.596 E144.67165
G0 F3000 X16.457 Y1.554
G1 F1500 X15.851 Y4.996 E144.85764
G1 X15.008 Y8.387 E145.04358
G1 X13.931 Y11.711 E145.22953
G1 X12.741 Y14.664 E145.39896
G1 X84.768 Y14.666 E149.23196
G1 X85.319 Y14.739 E149.26154
G1 X85.844 Y14.957 E149.29179
G1 X86.301 Y15.307 E149.32242
G1 X86.651 Y15.764 E149.35306
G1 X86.869 Y16.292 E149.38345
G1 X86.944 Y16.863 E149.4141
G1 X86.943 Y51.865 E151.27678
G1 X86.892 Y52.319 E151.30109
G1 X86.725 Y52.798 E151.32808
G1 X86.427 Y53.26 E151.35734
G1 X86.063 Y53.604 E151.38399
G1 X85.671 Y53.838 E151.40829
G1 X85.171 Y54.003 E151.43631
G1 X84.644 Y54.041 E151.46442
G1 X84.191 Y53.973 E151.4888
G1 X0.836 Y31.421 E156.08412
G1 X-1.823 Y33.721 E156.27122
G1 X-4.754 Y35.902 E156.46564
G1 X-7.809 Y37.851 E156.65848
G1 X-11.024 Y39.588 E156.85294
G1 X-14.34 Y41.079 E157.04643
G1 X-17.746 Y42.324 E157.23941
G1 X-21.257 Y43.323 E157.43367
G1 X-24.807 Y44.063 E157.62665
G1 X-28.427 Y44.546 E157.821
G1 X-32.059 Y44.765 E158.01463
G1 X-35.695 Y44.719 E158.20814
G1 X-39.32 Y44.412 E158.40174
G1 X-42.916 Y43.842 E158.59549
G1 X-46.456 Y43.012 E158.78899
G1 X-49.93 Y41.929 E158.98264
G1 X-53.316 Y40.595 E159.17631
G1 X-56.596 Y39.023 E159.36987
G1 X-59.754 Y37.216 E159.56349
G1 X-62.762 Y35.192 E159.75643
G1 X-65.636 Y32.939 E159.95077
G1 X-68.33 Y30.493 E160.14441
G1 X-70.83 Y27.869 E160.33728
G1 X-73.151 Y25.05 E160.5316
G1 X-75.253 Y22.079 E160.72527
G1 X-77.133 Y18.967 E160.91876
G1 X-78.784 Y15.724 E161.11241
G1 X-80.197 Y12.371 E161.30604
G1 X-81.363 Y8.925 E161.49964
G1 X-82.275 Y5.403 E161.69325
G1 X-82.93 Y1.824 E161.88687
G1 X-83.325 Y-1.794 E162.08055
G1 X-83.456 Y-5.427 E162.27401
G1 X-83.324 Y-9.063 E162.46764
G1 X-82.928 Y-12.68 E162.66127
G1 X-82.273 Y-16.259 E162.85489
G1 X-81.363 Y-19.767 E163.04775
G1 X-80.192 Y-23.227 E163.24214
G1 X-78.778 Y-26.579 E163.43574
G1 X-77.126 Y-29.821 E163.62938
G1 X-75.245 Y-32.934 E163.82294
G1 X-73.142 Y-35.903 E164.01655
G1 X-70.83 Y-38.711 E164.21012
G1 X-68.33 Y-41.335 E164.40299
