;FLAVOR:Marlin
;TIME:11666
;Filament used: 9.9018m
;Layer height: 0.2
;MINX:-33.808
;MINY:-33.808
;MINZ:0.28
;MAXX:33.808
;MAXY:33.808
;MAXZ:32.08
;Generated with Cura_SteamEngine 5.3.0
M82 ;absolute extrusion mode
;Start Gcode
G90 ;absolute positioning
M118 X25.00 Y25.00 Z20.00 T0
M140 S40 T0 ;Heat bed up to first layer temperature
M104 S200 T0 ;Set nozzle temperature to first layer temperature
M107 ;start with the fan off
G90
G28
M132 X Y Z A B
G1 Z50.000 F420
G161 X Y F3300
M7 T0
M6 T0
M651
M907 X100 Y100 Z40 A100 B20 ;Digital potentiometer value
M108 T0
;Purge line
G1 X-110.00 Y-60.00 F4800
G1 Z0.28 F420
G1 X-110.00 Y60.00 E17,4 F1200
;Purge line end
G92 E0
G92 E0
G1 F2400 E-1.3
;LAYER_COUNT:160
;LAYER:0
M107
G0 F3000 X14.499 Y33.313 Z0.28
;TYPE:SKIRT
G1 F2400 E0
G1 F1500 X13.963 Y33.646 E0.02938
G1 X13.304 Y33.808 E0.06098
G1 X-13.304 Y33.808 E1.29996
G1 X-13.963 Y33.646 E1.33156
G1 X-14.499 Y33.313 E1.36094
G1 X-33.313 Y14.499 E2.59988
G1 X-33.646 Y13.963 E2.62926
G1 X-33.808 Y13.304 E2.66086
G1 X-33.808 Y-13.304 E3.89984
G1 X-33.646 Y-13.963 E3.93144
G1 X-33.313 Y-14.499 E3.96082
G1 X-14.499 Y-33.313 E5.19976
G1 X-13.963 Y-33.646 E5.22914
G1 X-13.304 Y-33.808 E5.26074
G1 X13.304 Y-33.808 E6.49972
G1 X13.963 Y-33.646 E6.53132
G1 X14.499 Y-33.313 E6.5607
G1 X33.313 Y-14.499 E7.79964
G1 X33.646 Y-13.963 E7.82902
G1 X33.808 Y-13.304 E7.86062
G1 X33.808 Y13.304 E9.0996
G1 X33.646 Y13.963 E9.1312
G1 X33.313 Y14.499 E9.16058
G1 X14.499 Y33.313 E10.39951
G1 F2400 E9.09951
G0 F3000 X13.258 Y33.408
G1 F2400 E10.39951
G1 F1500 X-13.258 Y33.408 E11.63421
G1 X-13.804 Y33.274 E11.66039
G1 X-14.248 Y32.998 E11.68473
G1 X-32.998 Y14.248 E12.91945
G1 X-33.274 Y13.804 E12.94379
G1 X-33.408 Y13.258 E12.96997
G1 X-33.408 Y-13.258 E14.20467
G1 X-33.274 Y-13.804 E14.23085
G1 X-32.998 Y-14.248 E14.25519
G1 X-14.248 Y-32.998 E15.48991
G1 X-13.804 Y-33.274 E15.51425
G1 X-13.258 Y-33.408 E15.54043
G1 X13.258 Y-33.408 E16.77513
G1 X13.804 Y-33.274 E16.80131
G1 X14.248 Y-32.998 E16.82565
G1 X32.998 Y-14.248 E18.06037
G1 X33.274 Y-13.804 E18.08471
G1 X33.408 Y-13.258 E18.11089
G1 X33.408 Y13.258 E19.34559
G1 X33.274 Y13.804 E19.37177
G1 X32.998 Y14.248 E19.39611
G1 X14.248 Y32.998 E20.63083
G1 X13.804 Y33.274 E20.65517
G1 X13.258 Y33.408 E20.68135
G0 F3000 X13.965 Y32.715
G1 F1500 X32.715 Y13.965 E21.91607
G1 X32.929 Y13.601 E21.93573
G1 X33.008 Y13.258 E21.95212
G1 X33.008 Y-13.258 E23.18682
G1 X32.929 Y-13.601 E23.20321
G1 X32.715 Y-13.965 E23.22287
G1 X13.965 Y-32.715 E24.45759
G1 X13.601 Y-32.929 E24.47725
G1 X13.258 Y-33.008 E24.49364
G1 X-13.258 Y-33.008 E25.72834
G1 X-13.601 Y-32.929 E25.74473
G1 X-13.965 Y-32.715 E25.76439
G1 X-32.715 Y-13.965 E26.99911
G1 X-32.929 Y-13.601 E27.01877
G1 X-33.008 Y-13.258 E27.03516
G1 X-33.008 Y13.258 E28.26985
G1 X-32.929 Y13.601 E28.28624
G1 X-32.715 Y13.965 E28.30591
G1 X-13.965 Y32.715 E29.54063
G1 X-13.601 Y32.929 E29.56029
G1 X-13.258 Y33.008 E29.57668
G1 X13.258 Y33.008 E30.81137
G1 X13.601 Y32.929 E30.82776
G1 X13.965 Y32.715 E30.84742
G0 F3000 X13.682 Y32.432
G1 F1500 X13.412 Y32.577 E30.86169
G1 X13.258 Y32.608 E30.86901
G1 X-13.258 Y32.608 E32.10371
G1 X-13.412 Y32.577 E32.11102
G1 X-13.682 Y32.432 E32.12529
G1 X-32.432 Y13.682 E33.36001
G1 X-32.577 Y13.412 E33.37428
G1 X-32.608 Y13.258 E33.3816
G1 X-32.608 Y-13.258 E34.61629
G1 X-32.577 Y-13.412 E34.62361
G1 X-32.432 Y-13.682 E34.63788
G1 X-13.682 Y-32.432 E35.8726
G1 X-13.412 Y-32.577 E35.88687
G1 X-13.258 Y-32.608 E35.89418
G1 X13.258 Y-32.608 E37.12888
G1 X13.412 Y-32.577 E37.13619
G1 X13.682 Y-32.432 E37.15046
G1 X32.432 Y-13.682 E38.38518
G1 X32.577 Y-13.412 E38.39945
G1 X32.608 Y-13.258 E38.40677
G1 X32.608 Y13.258 E39.64146
G1 X32.577 Y13.412 E39.64878
G1 X32.432 Y13.682 E39.66305
G1 X13.682 Y32.432 E40.89777
G0 F3000 X13.399 Y32.149
G1 F1500 X13.258 Y32.208 E40.90489
G1 X-13.258 Y32.208 E42.13958
G1 X-13.399 Y32.149 E42.1467
G1 X-32.149 Y13.399 E43.38142
G1 X-32.208 Y13.258 E43.38854
G1 X-32.208 Y-13.258 E44.62323
G1 X-32.149 Y-13.399 E44.63035
G1 X-13.399 Y-32.149 E45.86507
G1 X-13.258 Y-32.208 E45.87219
G1 X13.258 Y-32.208 E47.10688
G1 X13.399 Y-32.149 E47.114
G1 X32.149 Y-13.399 E48.34872
G1 X32.208 Y-13.258 E48.35584
G1 X32.208 Y13.258 E49.59053
G1 X32.149 Y13.399 E49.59765
G1 X13.399 Y32.149 E50.83237
G1 F2400 E49.53237
G0 F3000 X13.335 Y21.621
;TYPE:SUPPORT
G1 F2400 E50.83237
G1 F1500 X13.335 Y1.758 E51.75727
G1 F2400 E50.45727
G0 F3000 X10.668 Y1.756
G1 F2400 E51.75727
G1 F1500 X10.668 Y18.955 E52.55813
G0 F3000 X10.38 Y18.669
G1 F1500 X19.883 Y18.669 E53.00063
G1 F2400 E51.70063
G0 F3000 X18.669 Y19.886
G1 F2400 E53.00063
G1 F1500 X18.669 Y4.114 E53.73504
G1 F2400 E52.43504
G0 F3000 X19.891 Y5.334
G1 F2400 E53.73504
G1 F1500 X4.112 Y5.334 E54.46978
G1 F2400 E53.16978
G0 F3000 X5.334 Y4.112
G1 F2400 E54.46978
G1 F1500 X5.334 Y13.663 E54.91451
G0 F3000 X4.87 Y13.335
G1 F1500 X22.242 Y13.335 E55.72342
G1 F2400 E54.42342
G0 F3000 X22.244 Y10.668
G1 F2400 E55.72342
G1 F1500 X1.757 Y10.668 E56.67738
G1 F2400 E55.37738
G0 F3000 X2.667 Y12.452
G1 F2400 E56.67738
G1 F1500 X2.667 Y7.574 E56.90452
G0 F3000 X2.476 Y8.001
G1 F1500 X21.526 Y8.001 E57.79157
G0 F3000 X21.336 Y7.58
G1 F1500 X21.336 Y16.418 E58.20311
G0 F3000 X21.521 Y16.002
G1 F1500 X7.711 Y16.002 E58.84616
G0 F3000 X8.001 Y16.289
G1 F1500 X8.001 Y2.476 E59.48935
G0 F3000 X7.574 Y2.667
G1 F1500 X16.426 Y2.667 E59.90154
G0 F3000 X16.002 Y2.478
G1 F1500 X16.002 Y21.524 E60.7884
G0 F3000 X16.418 Y21.336
G1 F1500 X13.048 Y21.336 E60.94532
G1 F2400 E59.64532
G0 F3000 X-2.667 Y12.446
G1 F2400 E60.94532
G1 F1500 X-2.667 Y7.574 E61.17218
G0 F3000 X-2.474 Y8.001
G1 F1500 X-21.524 Y8 E62.05923
G0 F3000 X-21.336 Y7.58
G1 F1500 X-21.336 Y16.418 E62.47076
G0 F3000 X-21.523 Y16.001
G1 F1500 X-7.707 Y16.002 E63.11409
G0 F3000 X-8.001 Y16.296
G1 F1500 X-8.001 Y2.477 E63.75756
G0 F3000 X-7.576 Y2.666
G1 F1500 X-16.424 Y2.666 E64.16956
G0 F3000 X-16.002 Y2.476
G1 F1500 X-16.002 Y21.522 E65.05642
G0 F3000 X-16.418 Y21.336
G1 F1500 X-13.049 Y21.336 E65.2133
G0 F3000 X-13.335 Y21.622
G1 F1500 X-13.335 Y1.756 E66.13834
G1 F2400 E64.83834
G0 F3000 X-10.668 Y1.759
G1 F2400 E66.13834
G1 F1500 X-10.668 Y18.959 E66.93925
G0 F3000 X-10.378 Y18.669
G1 F1500 X-19.884 Y18.669 E67.38189
G1 F2400 E66.08189
G0 F3000 X-18.669 Y19.885
G1 F2400 E67.38189
G1 F1500 X-18.669 Y4.113 E68.1163
G1 F2400 E66.8163
G0 F3000 X-19.889 Y5.333
G1 F2400 E68.1163
G1 F1500 X-4.11 Y5.334 E68.85103
G1 F2400 E67.55103
G0 F3000 X-5.334 Y4.112
G1 F2400 E68.85103
G1 F1500 X-5.334 Y13.681 E69.29661
G0 F3000 X-4.877 Y13.335
G1 F1500 X-22.244 Y13.334 E70.10529
G1 F2400 E68.80529
G0 F3000 X-22.242 Y10.667
G1 F2400 E70.10529
G1 F1500 X-1.755 Y10.668 E71.05925
G1 F2400 E69.75925
G0 F3000 X-7.575 Y-2.667
G1 F2400 E71.05925
G1 F1500 X-16.428 Y-2.667 E71.47148
G0 F3000 X-16.002 Y-2.477
G1 F1500 X-16.002 Y-21.524 E72.35839
G0 F3000 X-16.418 Y-21.336
G1 F1500 X-13.04 Y-21.336 E72.51568
G0 F3000 X-13.335 Y-21.629
G1 F1500 X-13.335 Y-1.758 E73.44096
G1 F2400 E72.14096
G0 F3000 X-10.668 Y-1.755
G1 F2400 E73.44096
G1 F1500 X-10.668 Y-18.964 E74.24228
G0 F3000 X-10.371 Y-18.669
G1 F1500 X-19.885 Y-18.669 E74.68529
G1 F2400 E73.38529
G0 F3000 X-18.669 Y-19.886
G1 F2400 E74.68529
G1 F1500 X-18.669 Y-4.116 E75.41961
G1 F2400 E74.11961
G0 F3000 X-19.889 Y-5.334
G1 F2400 E75.41961
G1 F1500 X-4.113 Y-5.334 E76.15421
G1 F2400 E74.85421
G0 F3000 X-5.334 Y-4.112
G1 F2400 E76.15421
G1 F1500 X-5.334 Y-13.662 E76.5989
G0 F3000 X-4.916 Y-13.335
G1 F1500 X-22.242 Y-13.335 E77.40567
G1 F2400 E76.10567
G0 F3000 X-22.244 Y-10.668
G1 F2400 E77.40567
G1 F1500 X-1.757 Y-10.668 E78.35963
G1 F2400 E77.05963
G0 F3000 X-2.667 Y-12.349
G1 F2400 E78.35963
G1 F1500 X-2.667 Y-7.575 E78.58192
G0 F3000 X-2.475 Y-8.001
G1 F1500 X-21.525 Y-8.001 E79.46897
G0 F3000 X-21.336 Y-7.581
G1 F1500 X-21.336 Y-16.419 E79.88051
G0 F3000 X-21.522 Y-16.002
G1 F1500 X-7.702 Y-16.002 E80.52402
G0 F3000 X-8.001 Y-16.299
G1 F1500 X-8.001 Y-2.475 E81.16773
G1 F2400 E79.86773
G0 F3000 X2.667 Y-7.577
G1 F2400 E81.16773
G1 F1500 X2.667 Y-12.375 E81.39114
G1 F2400 E80.09114
G0 F3000 X1.755 Y-10.668
G1 F2400 E81.39114
G1 F1500 X22.242 Y-10.667 E82.3451
G1 F2400 E81.0451
G0 F3000 X22.244 Y-13.334
G1 F2400 E82.3451
G1 F1500 X4.909 Y-13.335 E83.15229
G0 F3000 X5.334 Y-13.668
G1 F1500 X5.334 Y-4.113 E83.59721
G1 F2400 E82.29721
G0 F3000 X4.113 Y-5.334
G1 F2400 E83.59721
G1 F1500 X19.888 Y-5.333 E84.33176
G1 F2400 E83.03176
G0 F3000 X18.669 Y-4.114
G1 F2400 E84.33176
G1 F1500 X18.669 Y-19.885 E85.06613
G1 F2400 E83.76613
G0 F3000 X19.887 Y-18.669
G1 F2400 E85.06613
G1 F1500 X10.381 Y-18.669 E85.50877
G0 F3000 X10.668 Y-18.956
G1 F1500 X10.668 Y-1.757 E86.30962
G1 F2400 E85.00962
G0 F3000 X13.335 Y-1.756
G1 F2400 E86.30962
G1 F1500 X13.335 Y-21.622 E87.23467
G0 F3000 X13.049 Y-21.336
G1 F1500 X16.418 Y-21.336 E87.39154
G0 F3000 X16.002 Y-21.522
G1 F1500 X16.002 Y-2.476 E88.2784
G0 F3000 X16.425 Y-2.666
G1 F1500 X7.577 Y-2.666 E88.6904
G0 F3000 X8.001 Y-2.476
G1 F1500 X8.001 Y-16.29 E89.33364
G0 F3000 X7.713 Y-16.002
G1 F1500 X21.524 Y-16.001 E89.97674
G0 F3000 X21.336 Y-16.418
G1 F1500 X21.336 Y-7.581 E90.38823
G0 F3000 X21.524 Y-8
G1 F1500 X2.474 Y-8.001 E91.27528
G1 F2400 E89.97528
;MESH:Suporte_eletroima.stl
G0 F3000 X8.816 Y-2.168
G0 X8.488 Y-1.154
G0 X12.058 Y-.102
G0 X12.043 Y-.4
;TYPE:WALL-INNER
G1 F2400 E91.27528
G1 F1500 X10.811 Y-.461 E91.33271
G1 X9.621 Y-.646 E91.38879
G1 X8.394 Y-.974 E91.44793
G1 X7.314 Y-1.389 E91.5018
G1 X6.216 Y-1.944 E91.55909
G1 X5.177 Y-2.619 E91.61679
G1 X4.232 Y-3.385 E91.67343
G1 X3.404 Y-4.212 E91.72792
G1 X2.619 Y-5.175 E91.78577
G1 X1.942 Y-6.219 E91.84371
G1 X1.386 Y-7.321 E91.90119
G1 X0.955 Y-8.453 E91.95759
G1 X0.645 Y-9.628 E92.01418
G1 X0.459 Y-10.826 E92.07063
G1 X0.4 Y-12.04 E92.12722
G1 X0.461 Y-13.19 E92.18085
G1 X0.649 Y-14.394 E92.23759
G1 X0.958 Y-15.558 E92.29367
G1 X1.392 Y-16.694 E92.35029
G1 X1.936 Y-17.771 E92.40648
G1 X2.594 Y-18.788 E92.46288
G1 X3.368 Y-19.751 E92.52041
G1 X4.229 Y-20.612 E92.57711
G1 X5.167 Y-21.372 E92.63332
G1 X6.171 Y-22.03 E92.68922
G1 X7.314 Y-22.612 E92.74894
G1 X8.384 Y-23.023 E92.80232
G1 X9.616 Y-23.353 E92.86171
G1 X10.812 Y-23.54 E92.91807
G1 X12.025 Y-23.6 E92.97463
G1 X13.167 Y-23.541 E93.02787
G1 X14.382 Y-23.352 E93.08513
G1 X15.616 Y-23.023 E93.1446
G1 X16.747 Y-22.583 E93.20111
G1 X17.779 Y-22.058 E93.25502
G1 X18.807 Y-21.392 E93.31206
G1 X19.782 Y-20.601 E93.37052
G1 X20.645 Y-19.734 E93.42748
G1 X21.359 Y-18.854 E93.48025
G1 X22.029 Y-17.831 E93.53719
G1 X22.611 Y-16.687 E93.59696
G1 X23.023 Y-15.618 E93.6503
G1 X23.353 Y-14.383 E93.70983
G1 X23.541 Y-13.184 E93.76634
G1 X23.6 Y-12.046 E93.8194
G1 X23.541 Y-10.832 E93.876
G1 X23.351 Y-9.606 E93.93377
G1 X23.04 Y-8.44 E93.98996
G1 X22.608 Y-7.307 E94.04642
G1 X22.028 Y-6.168 E94.10594
G1 X21.366 Y-5.158 E94.16217
G1 X20.611 Y-4.227 E94.21798
G1 X19.791 Y-3.407 E94.27198
G1 X18.813 Y-2.612 E94.33067
G1 X17.773 Y-1.938 E94.38838
G1 X16.685 Y-1.388 E94.44514
G1 X15.61 Y-.975 E94.49877
G1 X14.375 Y-.645 E94.55829
G1 X13.239 Y-.466 E94.61184
G1 X12.043 Y-.4 E94.66762
G0 F3000 X12.058 Y-.102
G0 X14.456 Y0.416
G0 X15.653 Y0.737
G0 X16.812 Y1.181
G0 X17.917 Y1.744
G0 X18.97 Y2.429
G0 X19.919 Y3.198
G0 X20.809 Y4.088
G0 X21.577 Y5.037
G0 X22.261 Y6.093
G0 X22.816 Y7.181
G0 X23.261 Y8.338
G0 X23.583 Y9.535
G0 X23.778 Y10.777
G0 X23.841 Y11.998
G0 X23.776 Y13.236
G0 X23.583 Y14.46
G0 X23.262 Y15.657
G0 X22.817 Y16.815
G0 X22.254 Y17.92
G0 X21.569 Y18.973
G0 X20.799 Y19.921
G0 X19.922 Y20.799
G0 X18.96 Y21.579
G0 X17.921 Y22.254
G0 X16.816 Y22.817
G0 X15.659 Y23.262
G0 X14.461 Y23.583
G0 X11.953 Y23.897
G0 X11.969 Y23.6
G1 F1500 X10.812 Y23.54 E94.72156
G1 X9.561 Y23.341 E94.78055
G1 X8.394 Y23.025 E94.83685
G1 X7.314 Y22.611 E94.8907
G1 X6.226 Y22.061 E94.94747
G1 X5.167 Y21.372 E95.0063
G1 X4.239 Y20.621 E95.06189
G1 X3.37 Y19.752 E95.11911
G1 X2.628 Y18.834 E95.17408
G1 X1.97 Y17.83 E95.22997
G1 X1.419 Y16.752 E95.28635
G1 X0.957 Y15.554 E95.34613
G1 X0.661 Y14.451 E95.39931
G1 X0.46 Y13.186 E95.45895
G1 X0.4 Y11.962 E95.51602
G1 X0.46 Y10.823 E95.56913
G1 X0.649 Y9.607 E95.62643
G1 X0.961 Y8.432 E95.68304
G1 X1.419 Y7.247 E95.74219
G1 X1.935 Y6.231 E95.79526
G1 X2.591 Y5.217 E95.85149
G1 X3.37 Y4.247 E95.90942
G1 X4.236 Y3.383 E95.96638
G1 X5.176 Y2.618 E96.02282
G1 X6.216 Y1.944 E96.08052
G1 X7.252 Y1.417 E96.13465
G1 X8.384 Y0.977 E96.1912
G1 X9.559 Y0.658 E96.24789
G1 X10.803 Y0.461 E96.30654
G1 X12.042 Y0.4 E96.3643
G1 X13.239 Y0.466 E96.42013
G1 X14.437 Y0.659 E96.47663
G1 X15.61 Y0.976 E96.53321
G1 X16.685 Y1.388 E96.58681
G1 X17.829 Y1.97 E96.64658
G1 X18.825 Y2.621 E96.70199
G1 X19.757 Y3.375 E96.75781
G1 X20.627 Y4.244 E96.81507
G1 X21.367 Y5.159 E96.86986
G1 X22.034 Y6.179 E96.92661
G1 X22.608 Y7.308 E96.98559
G1 X23.04 Y8.437 E97.04187
G1 X23.352 Y9.611 E97.09844
G1 X23.542 Y10.828 E97.15579
G1 X23.6 Y12.03 E97.21183
G1 X23.54 Y13.181 E97.2655
G1 X23.34 Y14.439 E97.32481
G1 X23.023 Y15.614 E97.38148
G1 X22.61 Y16.687 E97.43502
G1 X22.063 Y17.771 E97.49155
G1 X21.383 Y18.821 E97.5498
G1 X20.602 Y19.78 E97.60739
G1 X19.783 Y20.6 E97.66136
G1 X18.839 Y21.368 E97.71803
G1 X17.778 Y22.059 E97.77698
G1 X16.748 Y22.583 E97.8308
G1 X15.616 Y23.023 E97.88735
G1 X14.443 Y23.34 E97.94393
G1 X13.166 Y23.542 E98.00413
G1 X11.969 Y23.6 E98.05993
G0 F3000 X11.953 Y23.897
G0 X12.888 Y31.116
G0 X13.008 Y31.407
G1 F1500 X31.408 Y13.008 E99.27157
G1 X31.408 Y-13.008 E100.48298
G1 X13.008 Y-31.407 E101.69462
G1 X-13.008 Y-31.407 E102.90604
G1 X-31.407 Y-13.008 E104.11764
G1 X-31.407 Y13.008 E105.32906
G1 X-13.008 Y31.408 E106.54069
G1 X13.008 Y31.407 E107.75211
G0 F3000 X12.888 Y31.116
G0 X-12.041 Y23.897
G0 X-12.025 Y23.6
G1 F1500 X-13.167 Y23.541 E107.80536
G1 X-14.382 Y23.352 E107.86261
G1 X-15.616 Y23.023 E107.92208
G1 X-16.749 Y22.582 E107.97869
G1 X-17.779 Y22.058 E108.0325
G1 X-18.807 Y21.392 E108.08954
G1 X-19.784 Y20.599 E108.14813
G1 X-20.603 Y19.779 E108.2021
G1 X-21.358 Y18.854 E108.25769
G1 X-22.033 Y17.824 E108.31504
G1 X-22.612 Y16.684 E108.37457
G1 X-23.025 Y15.61 E108.42815
G1 X-23.341 Y14.439 E108.48463
G1 X-23.541 Y13.18 E108.54399
G1 X-23.6 Y11.98 E108.59994
G1 X-23.541 Y10.827 E108.65369
G1 X-23.351 Y9.61 E108.71105
G1 X-23.039 Y8.436 E108.76761
G1 X-22.581 Y7.247 E108.82694
G1 X-22.034 Y6.179 E108.88282
G1 X-21.366 Y5.158 E108.93963
G1 X-20.612 Y4.228 E108.99538
G1 X-19.756 Y3.374 E109.05168
G1 X-18.824 Y2.62 E109.1075
G1 X-17.773 Y1.938 E109.16584
G1 X-16.685 Y1.388 E109.22261
G1 X-15.609 Y0.975 E109.27628
G1 X-14.437 Y0.658 E109.33281
G1 X-13.197 Y0.46 E109.39128
G1 X-11.965 Y0.4 E109.44872
G1 X-10.766 Y0.466 E109.50463
G1 X-9.568 Y0.657 E109.56112
G1 X-8.376 Y0.98 E109.61863
G1 X-7.303 Y1.395 E109.6722
G1 X-6.16 Y1.976 E109.7319
G1 X-5.176 Y2.619 E109.78664
G1 X-4.246 Y3.373 E109.84239
G1 X-3.37 Y4.248 E109.90004
G1 X-2.626 Y5.169 E109.95517
G1 X-1.935 Y6.231 E110.01417
G1 X-1.394 Y7.303 E110.07008
G1 X-.961 Y8.433 E110.12643
G1 X-.649 Y9.607 E110.18299
G1 X-.459 Y10.823 E110.2403
G1 X-.4 Y12.034 E110.29676
G1 X-.462 Y13.207 E110.35145
G1 X-.648 Y14.389 E110.40717
G1 X-.957 Y15.555 E110.46334
G1 X-1.392 Y16.693 E110.52007
G1 X-1.967 Y17.823 E110.57911
G1 X-2.591 Y18.782 E110.63238
G1 X-3.37 Y19.753 E110.69035
G1 X-4.24 Y20.622 E110.74761
G1 X-5.217 Y21.408 E110.80599
G1 X-6.227 Y22.063 E110.86205
G1 X-7.313 Y22.611 E110.91869
G1 X-8.384 Y23.023 E110.97212
G1 X-9.62 Y23.355 E111.03172
G1 X-10.812 Y23.54 E111.08788
G1 X-12.025 Y23.6 E111.14444
G0 F3000 X-12.041 Y23.897
G0 X-14.462 Y23.582
G0 X-15.658 Y23.263
G0 X-16.817 Y22.816
G0 X-17.922 Y22.253
G0 X-18.961 Y21.578
G0 X-19.923 Y20.798
G0 X-20.8 Y19.92
G0 X-21.57 Y18.972
G0 X-22.255 Y17.919
G0 X-22.818 Y16.814
G0 X-23.263 Y15.656
G0 X-23.584 Y14.459
G0 X-23.777 Y13.235
G0 X-23.841 Y12.013
G0 X-23.777 Y10.776
G0 X-23.582 Y9.534
G0 X-23.26 Y8.337
G0 X-22.815 Y7.18
G0 X-22.26 Y6.092
G0 X-21.576 Y5.036
G0 X-20.808 Y4.087
G0 X-19.918 Y3.197
G0 X-18.969 Y2.428
G0 X-17.916 Y1.743
G0 X-16.811 Y1.18
G0 X-15.652 Y0.736
G0 X-12.057 Y-.103
G0 X-12.041 Y-.4
