;FLAVOR:Marlin
;TIME:8872
;Filament used: 7.0832m
;Layer height: 0.2
;MINX:-33.81
;MINY:-33.811
;MINZ:0.28
;MAXX:33.808
;MAXY:33.811
;MAXZ:63.08
;Generated with Cura_SteamEngine 5.3.0
M82 ;absolute extrusion mode
;Start Gcode
G90 ;absolute positioning
M118 X25.00 Y25.00 Z20.00 T0
M140 S40 T0 ;Heat bed up to first layer temperature
M104 S200 T0 ;Set nozzle temperature to first layer temperature
M107 ;start with the fan off
G90
G28
M132 X Y Z A B
G1 Z50.000 F420
G161 X Y F3300
M7 T0
M6 T0
M651
M907 X100 Y100 Z40 A100 B20 ;Digital potentiometer value
M108 T0
;Purge line
G1 X-110.00 Y-60.00 F4800
G1 Z0.28 F420
G1 X-110.00 Y60.00 E17,4 F1200
;Purge line end
G92 E0
G92 E0
G1 F2400 E-1.3
;LAYER_COUNT:315
;LAYER:0
M107
G0 F3000 X14.645 Y33.17 Z0.28
;TYPE:SKIRT
G1 F2400 E0
G1 F1500 X14.137 Y33.517 E0.02865
G1 X13.253 Y33.811 E0.07203
G1 X-13.245 Y33.81 E1.30588
G1 X-14.134 Y33.519 E1.34944
G1 X-14.646 Y33.171 E1.37827
G1 X-33.315 Y14.498 E2.60778
G1 X-33.648 Y13.962 E2.63717
G1 X-33.81 Y13.303 E2.66877
G1 X-33.805 Y-13.31 E3.90798
G1 X-33.643 Y-13.969 E3.93958
G1 X-33.31 Y-14.505 E3.96896
G1 X-14.645 Y-33.17 E5.19808
G1 X-14.137 Y-33.517 E5.22673
G1 X-13.253 Y-33.811 E5.27011
G1 X13.245 Y-33.81 E6.50397
G1 X14.134 Y-33.519 E6.54752
G1 X14.646 Y-33.171 E6.57635
G1 X33.215 Y-14.592 E7.79948
G1 X33.546 Y-14.087 E7.8276
G1 X33.808 Y-13.228 E7.86941
G1 X33.808 Y13.222 E9.10104
G1 X33.521 Y14.156 E9.14654
G1 X33.187 Y14.621 E9.17319
G1 X14.645 Y33.17 E10.39445
G0 F3000 X14.362 Y32.887
G1 F1500 X13.96 Y33.154 E10.41692
G1 X13.187 Y33.411 E10.45485
G1 X-13.181 Y33.41 E11.68265
G1 X-13.956 Y33.156 E11.72063
G1 X-14.363 Y32.888 E11.74332
G1 X-33 Y14.247 E12.97073
G1 X-33.276 Y13.803 E12.99507
G1 X-33.41 Y13.257 E13.02125
G1 X-33.405 Y-13.264 E14.25618
G1 X-33.271 Y-13.81 E14.28236
G1 X-32.995 Y-14.254 E14.3067
G1 X-14.362 Y-32.887 E15.53372
G1 X-13.96 Y-33.154 E15.55619
G1 X-13.187 Y-33.411 E15.59412
G1 X13.181 Y-33.41 E16.82193
G1 X13.956 Y-33.156 E16.8599
G1 X14.363 Y-32.888 E16.88259
G1 X32.903 Y-14.339 E18.10378
G1 X33.179 Y-13.916 E18.1273
G1 X33.408 Y-13.167 E18.16377
G1 X33.408 Y13.164 E19.38985
G1 X33.159 Y13.975 E19.42935
G1 X32.904 Y14.338 E19.45001
G1 X14.362 Y32.887 E20.67126
G0 F3000 X14.079 Y32.604
G1 F1500 X13.834 Y32.774 E20.68515
G1 X13.121 Y33.011 E20.72014
G1 X-13.117 Y33.01 E21.94189
G1 X-13.831 Y32.776 E21.97687
G1 X-14.08 Y32.605 E21.99094
G1 X-32.717 Y13.964 E23.21835
G1 X-32.931 Y13.6 E23.23801
G1 X-33.01 Y13.257 E23.2544
G1 X-33.005 Y-13.264 E24.48933
G1 X-32.926 Y-13.607 E24.50572
G1 X-32.712 Y-13.971 E24.52538
G1 X-14.079 Y-32.604 E25.7524
G1 X-13.834 Y-32.774 E25.76628
G1 X-13.121 Y-33.011 E25.80127
G1 X13.117 Y-33.01 E27.02302
G1 X13.831 Y-32.776 E27.05801
G1 X14.08 Y-32.605 E27.07207
G1 X32.62 Y-14.056 E28.29326
G1 X32.796 Y-13.799 E28.30776
G1 X33.008 Y-13.106 E28.34151
G1 X33.008 Y13.106 E29.56205
G1 X32.797 Y13.794 E29.59556
G1 X32.621 Y14.055 E29.61021
G1 X14.079 Y32.604 E30.83147
G1 F2400 E29.53147
G0 F3000 X32.45 Y13.749
G0 X32.608 Y13.048
G1 F2400 E30.83147
G1 F1500 X32.433 Y13.62 E30.85932
G1 X32.338 Y13.772 E30.86767
G1 X13.796 Y32.321 E32.08892
G1 X13.654 Y32.412 E32.09677
G1 X13.055 Y32.611 E32.12616
G1 X-13.054 Y32.61 E33.34191
G1 X-13.653 Y32.414 E33.37126
G1 X-13.797 Y32.322 E33.37921
G1 X-32.434 Y13.681 E34.60662
G1 X-32.579 Y13.411 E34.62089
G1 X-32.61 Y13.257 E34.62821
G1 X-32.605 Y-13.264 E35.86314
G1 X-32.574 Y-13.418 E35.87045
G1 X-32.429 Y-13.688 E35.88472
G1 X-13.796 Y-32.321 E37.11174
G1 X-13.654 Y-32.412 E37.11959
G1 X-13.055 Y-32.611 E37.14898
G1 X13.054 Y-32.61 E38.36473
G1 X13.653 Y-32.414 E38.39407
G1 X13.797 Y-32.322 E38.40203
G1 X32.337 Y-13.773 E39.62322
G1 X32.432 Y-13.622 E39.63152
G1 X32.608 Y-13.048 E39.65948
G1 X32.608 Y13.048 E40.87462
G0 F3000 X32.208 Y13.048
G1 F1500 X32.055 Y13.489 E40.89635
G1 X13.513 Y32.038 E42.11761
G1 X13.055 Y32.211 E42.1404
G1 X-13.054 Y32.21 E43.35615
G1 X-13.514 Y32.039 E43.379
G1 X-32.151 Y13.398 E44.60641
G1 X-32.21 Y13.257 E44.61353
G1 X-32.205 Y-13.264 E45.84846
G1 X-32.146 Y-13.405 E45.85557
G1 X-13.513 Y-32.038 E47.08259
G1 X-13.055 Y-32.211 E47.10539
G1 X13.054 Y-32.21 E48.32113
G1 X13.514 Y-32.039 E48.34398
G1 X32.054 Y-13.49 E49.56517
G1 X32.208 Y-13.048 E49.58696
G1 X32.208 Y13.048 E50.8021
G1 F2400 E49.5021
G0 F3000 X22.242 Y13.335
;TYPE:SUPPORT
G1 F2400 E50.8021
G1 F1500 X4.869 Y13.335 E51.61106
G0 F3000 X5.334 Y13.691
G1 F1500 X5.334 Y4.118 E52.05682
G1 F2400 E50.75682
G0 F3000 X4.102 Y5.334
G1 F2400 E52.05682
G1 F1500 X19.883 Y5.334 E52.79165
G1 F2400 E51.49165
G0 F3000 X18.669 Y4.101
G1 F2400 E52.79165
G1 F1500 X18.669 Y19.883 E53.52653
G1 F2400 E52.22653
G0 F3000 X19.889 Y18.669
G1 F2400 E53.52653
G1 F1500 X10.366 Y18.669 E53.96996
G0 F3000 X10.668 Y18.968
G1 F1500 X10.668 Y1.762 E54.77114
G1 F2400 E53.47114
G0 F3000 X13.335 Y1.755
G1 F2400 E54.77114
G1 F1500 X13.335 Y21.623 E55.69628
G0 F3000 X13.045 Y21.336
G1 F1500 X16.406 Y21.336 E55.85278
G0 F3000 X16.002 Y21.533
G1 F1500 X16.002 Y2.481 E56.73992
G0 F3000 X16.42 Y2.667
G1 F1500 X7.569 Y2.667 E57.15206
G0 F3000 X8.001 Y2.48
G1 F1500 X8.001 Y16.313 E57.79618
G0 F3000 X7.686 Y16.002
G1 F1500 X21.522 Y16.002 E58.44045
G0 F3000 X21.336 Y16.404
G1 F1500 X21.336 Y7.586 E58.85105
G0 F3000 X21.525 Y8.001
G1 F1500 X2.481 Y8.001 E59.73782
G0 F3000 X2.667 Y7.573
G1 F1500 X2.667 Y12.454 E59.9651
G1 F2400 E58.6651
G0 F3000 X1.748 Y10.668
G1 F2400 E59.9651
G1 F1500 X22.237 Y10.668 E60.91915
G1 F2400 E59.61915
G0 F3000 X16.414 Y-2.666
G1 F2400 E60.91915
G1 F1500 X7.572 Y-2.666 E61.33087
G0 F3000 X8.001 Y-2.479
G1 F1500 X8.001 Y-16.292 E61.97406
G0 F3000 X7.71 Y-16.002
G1 F1500 X21.523 Y-16.001 E62.61725
G0 F3000 X21.336 Y-16.404
G1 F1500 X21.336 Y-7.588 E63.02776
G0 F3000 X21.524 Y-8
G1 F1500 X2.48 Y-8.001 E63.91453
G0 F3000 X2.667 Y-7.579
G1 F1500 X2.667 Y-12.397 E64.13888
G1 F2400 E62.83888
G0 F3000 X1.745 Y-10.668
G1 F2400 E64.13888
G1 F1500 X22.235 Y-10.667 E65.09298
G1 F2400 E63.79298
G0 F3000 X22.245 Y-13.334
G1 F2400 E65.09298
G1 F1500 X4.905 Y-13.335 E65.9004
G0 F3000 X5.334 Y-13.693
G1 F1500 X5.334 Y-4.12 E66.34616
G1 F2400 E65.04616
G0 F3000 X4.098 Y-5.334
G1 F2400 E66.34616
G1 F1500 X19.881 Y-5.333 E67.08108
G1 F2400 E65.78108
G0 F3000 X18.669 Y-4.102
G1 F2400 E67.08108
G1 F1500 X18.669 Y-19.88 E67.81577
G1 F2400 E66.51577
G0 F3000 X19.892 Y-18.669
G1 F2400 E67.81577
G1 F1500 X10.379 Y-18.669 E68.25874
G0 F3000 X10.668 Y-18.958
G1 F1500 X10.668 Y-1.764 E69.05936
G1 F2400 E67.75936
G0 F3000 X13.335 Y-1.752
G1 F2400 E69.05936
G1 F1500 X13.335 Y-21.624 E69.98469
G0 F3000 X13.047 Y-21.336
G1 F1500 X16.406 Y-21.336 E70.1411
G0 F3000 X16.002 Y-21.529
G1 F1500 X16.002 Y-2.481 E71.02805
G1 F2400 E69.72805
G0 F3000 X0.874 Y-11.911
G0 X-.122 Y-12.096
G0 X-1.203 Y-11.685
G0 X-2.481 Y-8.001
G1 F2400 E71.02805
G1 F1500 X-21.526 Y-8.001 E71.91486
G0 F3000 X-21.336 Y-7.585
G1 F1500 X-21.336 Y-16.403 E72.32547
G0 F3000 X-21.521 Y-16.002
G1 F1500 X-7.695 Y-16.002 E72.96926
G0 F3000 X-8.001 Y-16.305
G1 F1500 X-8.001 Y-2.477 E73.61315
G0 F3000 X-7.571 Y-2.667
G1 F1500 X-16.417 Y-2.667 E74.02506
G0 F3000 X-16.002 Y-2.482
G1 F1500 X-16.002 Y-21.532 E74.91211
G0 F3000 X-16.41 Y-21.336
G1 F1500 X-13.038 Y-21.336 E75.06912
G0 F3000 X-13.335 Y-21.631
G1 F1500 X-13.335 Y-1.755 E75.99463
G1 F2400 E74.69463
G0 F3000 X-10.668 Y-1.762
G1 F2400 E75.99463
G1 F1500 X-10.668 Y-18.968 E76.79582
G0 F3000 X-10.366 Y-18.669
G1 F1500 X-19.89 Y-18.669 E77.23929
G1 F2400 E75.93929
G0 F3000 X-18.669 Y-19.882
G1 F2400 E77.23929
G1 F1500 X-18.669 Y-4.103 E77.97403
G1 F2400 E76.67403
G0 F3000 X-19.882 Y-5.334
G1 F2400 E77.97403
G1 F1500 X-4.1 Y-5.334 E78.70891
G1 F2400 E77.40891
G0 F3000 X-5.334 Y-4.119
G1 F2400 E78.70891
G1 F1500 X-5.334 Y-13.67 E79.15364
G0 F3000 X-4.935 Y-13.335
G1 F1500 X-22.243 Y-13.335 E79.95957
G1 F2400 E78.65957
G0 F3000 X-22.237 Y-10.668
G1 F2400 E79.95957
G1 F1500 X-1.747 Y-10.668 E80.91367
G1 F2400 E79.61367
G0 F3000 X-2.667 Y-12.411
G1 F2400 E80.91367
G1 F1500 X-2.667 Y-7.579 E81.13867
G1 F2400 E79.83867
G0 F3000 X-7.571 Y2.666
G1 F2400 E81.13867
G1 F1500 X-16.417 Y2.666 E81.55058
G0 F3000 X-16.002 Y2.48
G1 F1500 X-16.002 Y21.531 E82.43767
G0 F3000 X-16.406 Y21.336
G1 F1500 X-13.047 Y21.336 E82.59408
G0 F3000 X-13.335 Y21.624
G1 F1500 X-13.335 Y1.752 E83.51941
G1 F2400 E82.21941
G0 F3000 X-10.668 Y1.764
G1 F2400 E83.51941
G1 F1500 X-10.668 Y18.958 E84.32003
G0 F3000 X-10.378 Y18.669
G1 F1500 X-19.889 Y18.669 E84.7629
G1 F2400 E83.4629
G0 F3000 X-18.669 Y19.881
G1 F2400 E84.7629
G1 F1500 X-18.669 Y4.1 E85.49773
G1 F2400 E84.19773
G0 F3000 X-19.881 Y5.333
G1 F2400 E85.49773
G1 F1500 X-4.1 Y5.334 E86.23256
G1 F2400 E84.93256
G0 F3000 X-5.334 Y4.119
G1 F2400 E86.23256
G1 F1500 X-5.334 Y13.685 E86.67799
G0 F3000 X-4.873 Y13.335
G1 F1500 X-22.244 Y13.334 E87.48686
G1 F2400 E86.18686
G0 F3000 X-22.235 Y10.667
G1 F2400 E87.48686
G1 F1500 X-1.748 Y10.668 E88.44082
G1 F2400 E87.14082
G0 F3000 X-2.667 Y12.451
G1 F2400 E88.44082
G1 F1500 X-2.667 Y7.573 E88.66796
G0 F3000 X-2.48 Y8.001
G1 F1500 X-21.524 Y8 E89.55473
G0 F3000 X-21.336 Y7.586
G1 F1500 X-21.336 Y16.405 E89.96538
G0 F3000 X-21.524 Y16.001
G1 F1500 X-7.71 Y16.002 E90.60862
G0 F3000 X-8.001 Y16.293
G1 F1500 X-8.001 Y2.481 E91.25176
G1 F2400 E89.95176
;MESH:Suporte_eletroima2.stl
G0 F3000 X-4.172 Y20.363
G0 X-4.609 Y21.375
G0 X-1.118 Y24.925
G0 X-1.121 Y24.625
;TYPE:WALL-INNER
G1 F2400 E91.25176
G1 F1500 X-1.65 Y24.484 E91.27725
G1 X-1.988 Y24.298 E91.29522
G1 X-4.804 Y21.464 E91.48125
G1 X-4.927 Y21.407 E91.48756
G1 X-5.225 Y21.423 E91.50146
G1 X-6.419 Y22.169 E91.56702
G1 X-7.564 Y22.72 E91.62618
G1 X-8.842 Y23.161 E91.68914
G1 X-10.105 Y23.444 E91.74941
G1 X-11.368 Y23.583 E91.80857
G1 X-12.737 Y23.575 E91.87232
G1 X-14.031 Y23.419 E91.93301
G1 X-15.246 Y23.136 E91.9911
G1 X-16.558 Y22.665 E92.05601
G1 X-17.733 Y22.083 E92.11707
G1 X-18.802 Y21.397 E92.17621
G1 X-19.84 Y20.549 E92.23862
G1 X-20.767 Y19.598 E92.30046
G1 X-21.568 Y18.559 E92.36155
G1 X-22.248 Y17.435 E92.42272
G1 X-22.797 Y16.244 E92.48379
G1 X-23.206 Y15.006 E92.5445
G1 X-23.472 Y13.722 E92.60556
G1 X-23.591 Y12.475 E92.66389
G1 X-23.564 Y11.095 E92.72816
G1 X-23.388 Y9.797 E92.78915
G1 X-23.086 Y8.589 E92.84713
G1 X-22.607 Y7.306 E92.9109
G1 X-22.044 Y6.196 E92.96886
G1 X-21.279 Y5.038 E93.03348
G1 X-20.456 Y4.056 E93.09314
G1 X-19.513 Y3.162 E93.15365
G1 X-18.432 Y2.346 E93.21672
G1 X-17.368 Y1.715 E93.27432
G1 X-16.118 Y1.155 E93.3381
G1 X-14.865 Y0.758 E93.3993
G1 X-13.59 Y0.507 E93.45981
G1 X-12.325 Y0.404 E93.51891
G1 X-10.971 Y0.445 E93.58198
G1 X-9.717 Y0.627 E93.64099
G1 X-8.385 Y0.978 E93.70513
G1 X-7.175 Y1.45 E93.76561
G1 X-5.999 Y2.073 E93.82757
G1 X-4.976 Y2.769 E93.88519
G1 X-3.951 Y3.647 E93.94803
G1 X-3.058 Y4.608 E94.00912
G1 X-2.284 Y5.658 E94.06986
G1 X-1.618 Y6.828 E94.13255
G1 X-1.096 Y8.041 E94.19404
G1 X-.72 Y9.289 E94.25473
G1 X-.479 Y10.611 E94.3173
G1 X-.351 Y10.799 E94.32789
G1 X-.203 Y10.877 E94.33568
G1 X0.189 Y10.883 E94.35394
G1 X0.352 Y10.799 E94.36248
G1 X0.479 Y10.611 E94.37304
G1 X0.737 Y9.221 E94.43887
G1 X1.097 Y8.04 E94.49636
G1 X1.648 Y6.768 E94.56091
G1 X2.285 Y5.657 E94.62054
G1 X3.058 Y4.607 E94.68126
G1 X3.952 Y3.646 E94.74237
G1 X4.954 Y2.784 E94.80392
G1 X6.01 Y2.066 E94.86338
G1 X7.175 Y1.45 E94.92474
G1 X8.4 Y0.972 E94.98597
G1 X9.718 Y0.626 E95.04943
G1 X10.968 Y0.445 E95.10824
G1 X12.276 Y0.403 E95.16917
G1 X13.589 Y0.508 E95.23051
G1 X14.863 Y0.758 E95.29096
G1 X16.118 Y1.155 E95.35226
G1 X17.314 Y1.687 E95.41321
G1 X18.436 Y2.349 E95.47387
G1 X19.537 Y3.183 E95.53818
G1 X20.456 Y4.058 E95.59727
G1 X21.282 Y5.042 E95.65709
G1 X22.046 Y6.198 E95.72161
G1 X22.635 Y7.369 E95.78265
G1 X23.067 Y8.525 E95.84011
G1 X23.39 Y9.801 E95.9014
G1 X23.565 Y11.097 E95.9623
G1 X23.59 Y12.476 E96.02652
G1 X23.461 Y13.789 E96.08795
G1 X23.187 Y15.074 E96.14913
G1 X22.771 Y16.308 E96.20977
G1 X22.213 Y17.501 E96.2711
G1 X21.526 Y18.621 E96.33228
G1 X20.718 Y19.654 E96.39335
G1 X19.834 Y20.554 E96.45209
G1 X18.78 Y21.413 E96.5154
G1 X17.731 Y22.084 E96.57339
G1 X16.556 Y22.666 E96.63444
G1 X15.244 Y23.137 E96.69935
G1 X14.029 Y23.42 E96.75744
G1 X12.685 Y23.58 E96.82047
G1 X11.436 Y23.586 E96.87863
G1 X10.141 Y23.448 E96.93927
G1 X8.841 Y23.16 E97.00127
G1 X7.563 Y22.719 E97.06422
G1 X6.359 Y22.136 E97.12651
G1 X5.224 Y21.423 E97.18893
G1 X4.928 Y21.407 E97.20273
G1 X4.806 Y21.463 E97.20898
G1 X2.153 Y24.132 E97.38421
G1 X1.759 Y24.418 E97.40688
G1 X1.386 Y24.561 E97.42548
G1 X1.041 Y24.603 E97.44167
G1 X-1.121 Y24.625 E97.54234
G0 F3000 X-1.118 Y24.925
G0 X12.887 Y31.119
G0 X13.007 Y31.411
G1 F1500 X31.367 Y13.045 E98.75158
G1 X31.408 Y12.938 E98.75691
G1 X31.408 Y-12.937 E99.96176
G1 X31.366 Y-13.045 E99.96716
G1 X13.012 Y-31.409 E101.17613
G1 X-13.007 Y-31.406 E102.38768
G1 X-31.405 Y-13.014 E103.59903
G1 X-31.409 Y13.007 E104.81067
G1 X-13.011 Y31.41 E106.02238
G1 X13.007 Y31.411 E107.23388
G0 F3000 X12.887 Y31.119
G0 X21.745 Y18.726
G0 X22.442 Y17.583
G0 X23.006 Y16.369
G0 X23.428 Y15.098
G0 X23.704 Y13.788
G0 X23.832 Y12.455
G0 X23.833 Y-12.449
G0 X23.707 Y-13.781
G0 X23.431 Y-15.087
G0 X23.011 Y-16.356
G0 X22.45 Y-17.568
G0 X21.755 Y-18.71
G0 X20.939 Y-19.767
G0 X20.006 Y-20.724
G0 X18.972 Y-21.57
G0 X17.849 Y-22.295
G0 X16.651 Y-22.888
G0 X15.379 Y-23.348
G0 X14.081 Y-23.656
G0 X1.812 Y-24.706
G0 X1.7 Y-24.432
G1 F1500 X2.094 Y-24.155 E107.25631
G1 X4.855 Y-21.495 E107.43483
G1 X4.975 Y-21.44 E107.44098
G1 X5.161 Y-21.425 E107.44967
G1 X5.272 Y-21.457 E107.45505
G1 X6.467 Y-22.198 E107.52052
G1 X7.605 Y-22.737 E107.57915
G1 X8.887 Y-23.174 E107.64222
G1 X10.138 Y-23.449 E107.70187
G1 X11.469 Y-23.589 E107.76418
G1 X12.778 Y-23.573 E107.82514
G1 X14.001 Y-23.424 E107.88251
G1 X15.343 Y-23.106 E107.94673
G1 X16.528 Y-22.678 E108.0054
G1 X17.7 Y-22.102 E108.06621
G1 X18.821 Y-21.382 E108.12824
G1 X19.822 Y-20.565 E108.18841
G1 X20.734 Y-19.636 E108.24903
G1 X21.535 Y-18.607 E108.30975
G1 X22.251 Y-17.43 E108.3739
G1 X22.801 Y-16.233 E108.43524
G1 X23.208 Y-14.997 E108.49583
G1 X23.464 Y-13.784 E108.55356
G1 X23.591 Y-12.471 E108.61498
G1 X23.568 Y-11.166 E108.67576
G1 X23.398 Y-9.844 E108.73782
G1 X23.069 Y-8.533 E108.80076
G1 X22.607 Y-7.308 E108.86172
G1 X22.048 Y-6.203 E108.91939
G1 X21.287 Y-5.051 E108.98368
G1 X20.464 Y-4.067 E109.04341
G1 X19.524 Y-3.171 E109.10388
G1 X18.477 Y-2.375 E109.16512
G1 X17.383 Y-1.724 E109.2244
G1 X16.187 Y-1.182 E109.28554
G1 X14.93 Y-.775 E109.34706
G1 X13.653 Y-.516 E109.40774
G1 X12.338 Y-.403 E109.46919
G1 X11.03 Y-.44 E109.53012
G1 X9.735 Y-.623 E109.59102
G1 X8.471 Y-.95 E109.65182
G1 X7.204 Y-1.438 E109.71504
G1 X6.09 Y-2.019 E109.77354
G1 X5.006 Y-2.746 E109.83432
G1 X3.988 Y-3.61 E109.89649
G1 X3.07 Y-4.595 E109.95919
G1 X2.311 Y-5.617 E110.01847
G1 X1.64 Y-6.783 E110.08111
G1 X1.145 Y-7.909 E110.13838
G1 X0.733 Y-9.236 E110.20308
G1 X0.489 Y-10.541 E110.2649
G1 X0.362 Y-10.728 E110.27543
G1 X0.213 Y-10.807 E110.28328
G1 X-.198 Y-10.813 E110.30242
G1 X-.363 Y-10.728 E110.31106
G1 X-.489 Y-10.54 E110.3216
G1 X-.733 Y-9.235 E110.38342
G1 X-1.146 Y-7.909 E110.44809
G1 X-1.641 Y-6.781 E110.50545
G1 X-2.297 Y-5.642 E110.56666
G1 X-3.115 Y-4.541 E110.63052
G1 X-3.989 Y-3.609 E110.69002
G1 X-4.984 Y-2.762 E110.75086
G1 X-6.102 Y-2.011 E110.81358
G1 X-7.269 Y-1.408 E110.87474
G1 X-8.424 Y-.964 E110.93236
G1 X-9.757 Y-.618 E110.99649
G1 X-10.986 Y-.444 E111.05429
G1 X-12.362 Y-.405 E111.11838
G1 X-13.605 Y-.511 E111.17647
G1 X-14.946 Y-.78 E111.24016
G1 X-16.138 Y-1.164 E111.29847
G1 X-17.331 Y-1.697 E111.35932
G1 X-18.482 Y-2.379 E111.42161
G1 X-19.527 Y-3.173 E111.48273
G1 X-20.449 Y-4.051 E111.54201
G1 X-21.291 Y-5.055 E111.60302
G1 X-22.052 Y-6.209 E111.66739
G1 X-22.637 Y-7.373 E111.72805
G1 X-23.072 Y-8.539 E111.786
G1 X-23.4 Y-9.848 E111.84884
G1 X-23.57 Y-11.172 E111.911
G1 X-23.59 Y-12.476 E111.97172
G1 X-23.462 Y-13.79 E112.0332
G1 X-23.205 Y-15.005 E112.09102
G1 X-22.798 Y-16.239 E112.15153
G1 X-22.247 Y-17.436 E112.21289
G1 X-21.548 Y-18.59 E112.27571
G1 X-20.728 Y-19.642 E112.33782
G1 X-19.86 Y-20.531 E112.39568
G1 X-18.798 Y-21.398 E112.45951
